(Exported by FreeCAD)
(Post Processor: script_module)
(Output Time:2025-07-08 13:40:45.744418)
(begin preamble)
G17 G54 G40 G49 G80 G90
G21
(begin operation: Fixture)
(machine units: mm/min)
G54 
(finish operation: Fixture)
(begin operation: TC: Endmill_6mm001)
(machine units: mm/min)
(TC: Endmill_6mm001) 
M5
M6 T2 
G43 H2 
(finish operation: TC: Endmill_6mm001)
(begin operation: Keystone-vasen)
(machine units: mm/min)
(Keystone-vasen) 
G0 Z30.000 
G0 X-54.706 Y-14.250 
G0 Z3.000 
G1 X-54.706 Y-14.250 Z-3.000 F60.000 
G1 X-57.000 Y-14.250 Z-3.000 F120.000 
G1 X-57.000 Y-16.544 Z-3.000 F120.000 
G1 X-54.706 Y-14.250 Z-3.000 F120.000 
G1 X-46.221 Y-14.250 Z-3.000 F120.000 
G1 X-57.000 Y-25.029 Z-3.000 F120.000 
G1 X-57.000 Y-31.000 Z-3.000 F120.000 
G1 X-54.485 Y-31.000 Z-3.000 F120.000 
G1 X-46.000 Y-22.515 Z-3.000 F120.000 
G1 X-46.000 Y-31.000 Z-3.000 F120.000 
G1 X-46.000 Y-31.000 Z-6.000 F60.000 
G1 X-46.000 Y-22.515 Z-6.000 F120.000 
G1 X-54.485 Y-31.000 Z-6.000 F120.000 
G1 X-57.000 Y-31.000 Z-6.000 F120.000 
G1 X-57.000 Y-25.029 Z-6.000 F120.000 
G1 X-46.221 Y-14.250 Z-6.000 F120.000 
G1 X-54.706 Y-14.250 Z-6.000 F120.000 
G1 X-57.000 Y-16.544 Z-6.000 F120.000 
G1 X-57.000 Y-14.250 Z-6.000 F120.000 
G1 X-54.706 Y-14.250 Z-6.000 F120.000 
G1 X-54.706 Y-14.250 Z-9.000 F60.000 
G1 X-57.000 Y-14.250 Z-9.000 F120.000 
G1 X-57.000 Y-16.544 Z-9.000 F120.000 
G1 X-54.706 Y-14.250 Z-9.000 F120.000 
G1 X-46.221 Y-14.250 Z-9.000 F120.000 
G1 X-57.000 Y-25.029 Z-9.000 F120.000 
G1 X-57.000 Y-31.000 Z-9.000 F120.000 
G1 X-54.485 Y-31.000 Z-9.000 F120.000 
G1 X-46.000 Y-22.515 Z-9.000 F120.000 
G1 X-46.000 Y-31.000 Z-9.000 F120.000 
G1 X-46.000 Y-31.000 Z-12.000 F60.000 
G1 X-46.000 Y-22.515 Z-12.000 F120.000 
G1 X-54.485 Y-31.000 Z-12.000 F120.000 
G1 X-57.000 Y-31.000 Z-12.000 F120.000 
G1 X-57.000 Y-25.029 Z-12.000 F120.000 
G1 X-46.221 Y-14.250 Z-12.000 F120.000 
G1 X-54.706 Y-14.250 Z-12.000 F120.000 
G1 X-57.000 Y-16.544 Z-12.000 F120.000 
G1 X-57.000 Y-14.250 Z-12.000 F120.000 
G1 X-54.706 Y-14.250 Z-12.000 F120.000 
G1 X-54.706 Y-14.250 Z-15.000 F60.000 
G1 X-57.000 Y-14.250 Z-15.000 F120.000 
G1 X-57.000 Y-16.544 Z-15.000 F120.000 
G1 X-54.706 Y-14.250 Z-15.000 F120.000 
G1 X-46.221 Y-14.250 Z-15.000 F120.000 
G1 X-57.000 Y-25.029 Z-15.000 F120.000 
G1 X-57.000 Y-31.000 Z-15.000 F120.000 
G1 X-54.485 Y-31.000 Z-15.000 F120.000 
G1 X-46.000 Y-22.515 Z-15.000 F120.000 
G1 X-46.000 Y-31.000 Z-15.000 F120.000 
G1 X-46.000 Y-31.000 Z-18.000 F60.000 
G1 X-46.000 Y-22.515 Z-18.000 F120.000 
G1 X-54.485 Y-31.000 Z-18.000 F120.000 
G1 X-57.000 Y-31.000 Z-18.000 F120.000 
G1 X-57.000 Y-25.029 Z-18.000 F120.000 
G1 X-46.221 Y-14.250 Z-18.000 F120.000 
G1 X-54.706 Y-14.250 Z-18.000 F120.000 
G1 X-57.000 Y-16.544 Z-18.000 F120.000 
G1 X-57.000 Y-14.250 Z-18.000 F120.000 
G1 X-54.706 Y-14.250 Z-18.000 F120.000 
G1 X-54.706 Y-14.250 Z-19.000 F60.000 
G1 X-57.000 Y-14.250 Z-19.000 F120.000 
G1 X-57.000 Y-16.544 Z-19.000 F120.000 
G1 X-54.706 Y-14.250 Z-19.000 F120.000 
G1 X-46.221 Y-14.250 Z-19.000 F120.000 
G1 X-57.000 Y-25.029 Z-19.000 F120.000 
G1 X-57.000 Y-31.000 Z-19.000 F120.000 
G1 X-54.485 Y-31.000 Z-19.000 F120.000 
G1 X-46.000 Y-22.515 Z-19.000 F120.000 
G1 X-46.000 Y-31.000 Z-19.000 F120.000 
G0 Z30.000 
G0 Z30.000 
G0 X-46.000 Y-31.000 
G0 X-81.000 
G0 X-81.000 Z3.000 
G1 X-81.000 Y-31.000 Z-3.000 F60.000 
G1 X-81.000 Y-22.515 Z-3.000 F120.000 
G1 X-89.485 Y-31.000 Z-3.000 F120.000 
G1 X-92.000 Y-31.000 Z-3.000 F120.000 
G1 X-92.000 Y-25.029 Z-3.000 F120.000 
G1 X-81.221 Y-14.250 Z-3.000 F120.000 
G1 X-89.706 Y-14.250 Z-3.000 F120.000 
G1 X-92.000 Y-16.544 Z-3.000 F120.000 
G1 X-92.000 Y-14.250 Z-3.000 F120.000 
G1 X-89.706 Y-14.250 Z-3.000 F120.000 
G1 X-89.706 Y-14.250 Z-6.000 F60.000 
G1 X-92.000 Y-14.250 Z-6.000 F120.000 
G1 X-92.000 Y-16.544 Z-6.000 F120.000 
G1 X-89.706 Y-14.250 Z-6.000 F120.000 
G1 X-81.221 Y-14.250 Z-6.000 F120.000 
G1 X-92.000 Y-25.029 Z-6.000 F120.000 
G1 X-92.000 Y-31.000 Z-6.000 F120.000 
G1 X-89.485 Y-31.000 Z-6.000 F120.000 
G1 X-81.000 Y-22.515 Z-6.000 F120.000 
G1 X-81.000 Y-31.000 Z-6.000 F120.000 
G1 X-81.000 Y-31.000 Z-9.000 F60.000 
G1 X-81.000 Y-22.515 Z-9.000 F120.000 
G1 X-89.485 Y-31.000 Z-9.000 F120.000 
G1 X-92.000 Y-31.000 Z-9.000 F120.000 
G1 X-92.000 Y-25.029 Z-9.000 F120.000 
G1 X-81.221 Y-14.250 Z-9.000 F120.000 
G1 X-89.706 Y-14.250 Z-9.000 F120.000 
G1 X-92.000 Y-16.544 Z-9.000 F120.000 
G1 X-92.000 Y-14.250 Z-9.000 F120.000 
G1 X-89.706 Y-14.250 Z-9.000 F120.000 
G1 X-89.706 Y-14.250 Z-12.000 F60.000 
G1 X-92.000 Y-14.250 Z-12.000 F120.000 
G1 X-92.000 Y-16.544 Z-12.000 F120.000 
G1 X-89.706 Y-14.250 Z-12.000 F120.000 
G1 X-81.221 Y-14.250 Z-12.000 F120.000 
G1 X-92.000 Y-25.029 Z-12.000 F120.000 
G1 X-92.000 Y-31.000 Z-12.000 F120.000 
G1 X-89.485 Y-31.000 Z-12.000 F120.000 
G1 X-81.000 Y-22.515 Z-12.000 F120.000 
G1 X-81.000 Y-31.000 Z-12.000 F120.000 
G1 X-81.000 Y-31.000 Z-15.000 F60.000 
G1 X-81.000 Y-22.515 Z-15.000 F120.000 
G1 X-89.485 Y-31.000 Z-15.000 F120.000 
G1 X-92.000 Y-31.000 Z-15.000 F120.000 
G1 X-92.000 Y-25.029 Z-15.000 F120.000 
G1 X-81.221 Y-14.250 Z-15.000 F120.000 
G1 X-89.706 Y-14.250 Z-15.000 F120.000 
G1 X-92.000 Y-16.544 Z-15.000 F120.000 
G1 X-92.000 Y-14.250 Z-15.000 F120.000 
G1 X-89.706 Y-14.250 Z-15.000 F120.000 
G1 X-89.706 Y-14.250 Z-18.000 F60.000 
G1 X-92.000 Y-14.250 Z-18.000 F120.000 
G1 X-92.000 Y-16.544 Z-18.000 F120.000 
G1 X-89.706 Y-14.250 Z-18.000 F120.000 
G1 X-81.221 Y-14.250 Z-18.000 F120.000 
G1 X-92.000 Y-25.029 Z-18.000 F120.000 
G1 X-92.000 Y-31.000 Z-18.000 F120.000 
G1 X-89.485 Y-31.000 Z-18.000 F120.000 
G1 X-81.000 Y-22.515 Z-18.000 F120.000 
G1 X-81.000 Y-31.000 Z-18.000 F120.000 
G1 X-81.000 Y-31.000 Z-19.000 F60.000 
G1 X-81.000 Y-22.515 Z-19.000 F120.000 
G1 X-89.485 Y-31.000 Z-19.000 F120.000 
G1 X-92.000 Y-31.000 Z-19.000 F120.000 
G1 X-92.000 Y-25.029 Z-19.000 F120.000 
G1 X-81.221 Y-14.250 Z-19.000 F120.000 
G1 X-89.706 Y-14.250 Z-19.000 F120.000 
G1 X-92.000 Y-16.544 Z-19.000 F120.000 
G1 X-92.000 Y-14.250 Z-19.000 F120.000 
G1 X-89.706 Y-14.250 Z-19.000 F120.000 
G0 Z30.000 
G0 Z30.000 
(finish operation: Keystone-vasen)
(begin postamble)
M05
G17 G54 G90 G80 G40
M2
