(Exported by FreeCAD)
(Post Processor: script_module)
(Output Time:2025-07-08 13:39:32.273923)
(begin preamble)
G17 G54 G40 G49 G80 G90
G21
(begin operation: Fixture)
(machine units: mm/min)
G54 
(finish operation: Fixture)
(begin operation: TC: Endmill_6mm001)
(machine units: mm/min)
(TC: Endmill_6mm001) 
M5
M6 T2 
G43 H2 
(finish operation: TC: Endmill_6mm001)
(begin operation: keystone-oikea)
(machine units: mm/min)
(keystone-oikea) 
G0 Z30.000 
G0 X46.000 Y-14.847 
G0 Z3.000 
G1 X46.000 Y-14.847 Z-3.000 F60.000 
G1 X46.000 Y-14.250 Z-3.000 F120.000 
G1 X46.597 Y-14.250 Z-3.000 F120.000 
G1 X46.000 Y-14.847 Z-3.000 F120.000 
G1 X46.000 Y-21.635 Z-3.000 F120.000 
G1 X53.385 Y-14.250 Z-3.000 F120.000 
G1 X57.000 Y-14.250 Z-3.000 F120.000 
G1 X57.000 Y-17.424 Z-3.000 F120.000 
G1 X46.000 Y-28.424 Z-3.000 F120.000 
G1 X46.000 Y-31.000 Z-3.000 F120.000 
G1 X50.212 Y-31.000 Z-3.000 F120.000 
G1 X57.000 Y-24.212 Z-3.000 F120.000 
G1 X57.000 Y-31.000 Z-3.000 F120.000 
G1 X57.000 Y-31.000 Z-6.000 F60.000 
G1 X57.000 Y-24.212 Z-6.000 F120.000 
G1 X50.212 Y-31.000 Z-6.000 F120.000 
G1 X46.000 Y-31.000 Z-6.000 F120.000 
G1 X46.000 Y-28.424 Z-6.000 F120.000 
G1 X57.000 Y-17.424 Z-6.000 F120.000 
G1 X57.000 Y-14.250 Z-6.000 F120.000 
G1 X53.385 Y-14.250 Z-6.000 F120.000 
G1 X46.000 Y-21.635 Z-6.000 F120.000 
G1 X46.000 Y-14.847 Z-6.000 F120.000 
G1 X46.597 Y-14.250 Z-6.000 F120.000 
G1 X46.000 Y-14.250 Z-6.000 F120.000 
G1 X46.000 Y-14.847 Z-6.000 F120.000 
G1 X46.000 Y-14.847 Z-9.000 F60.000 
G1 X46.000 Y-14.250 Z-9.000 F120.000 
G1 X46.597 Y-14.250 Z-9.000 F120.000 
G1 X46.000 Y-14.847 Z-9.000 F120.000 
G1 X46.000 Y-21.635 Z-9.000 F120.000 
G1 X53.385 Y-14.250 Z-9.000 F120.000 
G1 X57.000 Y-14.250 Z-9.000 F120.000 
G1 X57.000 Y-17.424 Z-9.000 F120.000 
G1 X46.000 Y-28.424 Z-9.000 F120.000 
G1 X46.000 Y-31.000 Z-9.000 F120.000 
G1 X50.212 Y-31.000 Z-9.000 F120.000 
G1 X57.000 Y-24.212 Z-9.000 F120.000 
G1 X57.000 Y-31.000 Z-9.000 F120.000 
G1 X57.000 Y-31.000 Z-12.000 F60.000 
G1 X57.000 Y-24.212 Z-12.000 F120.000 
G1 X50.212 Y-31.000 Z-12.000 F120.000 
G1 X46.000 Y-31.000 Z-12.000 F120.000 
G1 X46.000 Y-28.424 Z-12.000 F120.000 
G1 X57.000 Y-17.424 Z-12.000 F120.000 
G1 X57.000 Y-14.250 Z-12.000 F120.000 
G1 X53.385 Y-14.250 Z-12.000 F120.000 
G1 X46.000 Y-21.635 Z-12.000 F120.000 
G1 X46.000 Y-14.847 Z-12.000 F120.000 
G1 X46.597 Y-14.250 Z-12.000 F120.000 
G1 X46.000 Y-14.250 Z-12.000 F120.000 
G1 X46.000 Y-14.847 Z-12.000 F120.000 
G1 X46.000 Y-14.847 Z-15.000 F60.000 
G1 X46.000 Y-14.250 Z-15.000 F120.000 
G1 X46.597 Y-14.250 Z-15.000 F120.000 
G1 X46.000 Y-14.847 Z-15.000 F120.000 
G1 X46.000 Y-21.635 Z-15.000 F120.000 
G1 X53.385 Y-14.250 Z-15.000 F120.000 
G1 X57.000 Y-14.250 Z-15.000 F120.000 
G1 X57.000 Y-17.424 Z-15.000 F120.000 
G1 X46.000 Y-28.424 Z-15.000 F120.000 
G1 X46.000 Y-31.000 Z-15.000 F120.000 
G1 X50.212 Y-31.000 Z-15.000 F120.000 
G1 X57.000 Y-24.212 Z-15.000 F120.000 
G1 X57.000 Y-31.000 Z-15.000 F120.000 
G1 X57.000 Y-31.000 Z-18.000 F60.000 
G1 X57.000 Y-24.212 Z-18.000 F120.000 
G1 X50.212 Y-31.000 Z-18.000 F120.000 
G1 X46.000 Y-31.000 Z-18.000 F120.000 
G1 X46.000 Y-28.424 Z-18.000 F120.000 
G1 X57.000 Y-17.424 Z-18.000 F120.000 
G1 X57.000 Y-14.250 Z-18.000 F120.000 
G1 X53.385 Y-14.250 Z-18.000 F120.000 
G1 X46.000 Y-21.635 Z-18.000 F120.000 
G1 X46.000 Y-14.847 Z-18.000 F120.000 
G1 X46.597 Y-14.250 Z-18.000 F120.000 
G1 X46.000 Y-14.250 Z-18.000 F120.000 
G1 X46.000 Y-14.847 Z-18.000 F120.000 
G1 X46.000 Y-14.847 Z-19.000 F60.000 
G1 X46.000 Y-14.250 Z-19.000 F120.000 
G1 X46.597 Y-14.250 Z-19.000 F120.000 
G1 X46.000 Y-14.847 Z-19.000 F120.000 
G1 X46.000 Y-21.635 Z-19.000 F120.000 
G1 X53.385 Y-14.250 Z-19.000 F120.000 
G1 X57.000 Y-14.250 Z-19.000 F120.000 
G1 X57.000 Y-17.424 Z-19.000 F120.000 
G1 X46.000 Y-28.424 Z-19.000 F120.000 
G1 X46.000 Y-31.000 Z-19.000 F120.000 
G1 X50.212 Y-31.000 Z-19.000 F120.000 
G1 X57.000 Y-24.212 Z-19.000 F120.000 
G1 X57.000 Y-31.000 Z-19.000 F120.000 
G0 Z30.000 
G0 Z30.000 
G0 X57.000 Y-31.000 
G0 X81.000 Y-14.847 
G0 X81.000 Y-14.847 Z3.000 
G1 X81.000 Y-14.847 Z-3.000 F60.000 
G1 X81.000 Y-14.250 Z-3.000 F120.000 
G1 X81.597 Y-14.250 Z-3.000 F120.000 
G1 X81.000 Y-14.847 Z-3.000 F120.000 
G1 X81.000 Y-21.635 Z-3.000 F120.000 
G1 X88.385 Y-14.250 Z-3.000 F120.000 
G1 X92.000 Y-14.250 Z-3.000 F120.000 
G1 X92.000 Y-17.424 Z-3.000 F120.000 
G1 X81.000 Y-28.424 Z-3.000 F120.000 
G1 X81.000 Y-31.000 Z-3.000 F120.000 
G1 X85.212 Y-31.000 Z-3.000 F120.000 
G1 X92.000 Y-24.212 Z-3.000 F120.000 
G1 X92.000 Y-31.000 Z-3.000 F120.000 
G1 X92.000 Y-31.000 Z-6.000 F60.000 
G1 X92.000 Y-24.212 Z-6.000 F120.000 
G1 X85.212 Y-31.000 Z-6.000 F120.000 
G1 X81.000 Y-31.000 Z-6.000 F120.000 
G1 X81.000 Y-28.424 Z-6.000 F120.000 
G1 X92.000 Y-17.424 Z-6.000 F120.000 
G1 X92.000 Y-14.250 Z-6.000 F120.000 
G1 X88.385 Y-14.250 Z-6.000 F120.000 
G1 X81.000 Y-21.635 Z-6.000 F120.000 
G1 X81.000 Y-14.847 Z-6.000 F120.000 
G1 X81.597 Y-14.250 Z-6.000 F120.000 
G1 X81.000 Y-14.250 Z-6.000 F120.000 
G1 X81.000 Y-14.847 Z-6.000 F120.000 
G1 X81.000 Y-14.847 Z-9.000 F60.000 
G1 X81.000 Y-14.250 Z-9.000 F120.000 
G1 X81.597 Y-14.250 Z-9.000 F120.000 
G1 X81.000 Y-14.847 Z-9.000 F120.000 
G1 X81.000 Y-21.635 Z-9.000 F120.000 
G1 X88.385 Y-14.250 Z-9.000 F120.000 
G1 X92.000 Y-14.250 Z-9.000 F120.000 
G1 X92.000 Y-17.424 Z-9.000 F120.000 
G1 X81.000 Y-28.424 Z-9.000 F120.000 
G1 X81.000 Y-31.000 Z-9.000 F120.000 
G1 X85.212 Y-31.000 Z-9.000 F120.000 
G1 X92.000 Y-24.212 Z-9.000 F120.000 
G1 X92.000 Y-31.000 Z-9.000 F120.000 
G1 X92.000 Y-31.000 Z-12.000 F60.000 
G1 X92.000 Y-24.212 Z-12.000 F120.000 
G1 X85.212 Y-31.000 Z-12.000 F120.000 
G1 X81.000 Y-31.000 Z-12.000 F120.000 
G1 X81.000 Y-28.424 Z-12.000 F120.000 
G1 X92.000 Y-17.424 Z-12.000 F120.000 
G1 X92.000 Y-14.250 Z-12.000 F120.000 
G1 X88.385 Y-14.250 Z-12.000 F120.000 
G1 X81.000 Y-21.635 Z-12.000 F120.000 
G1 X81.000 Y-14.847 Z-12.000 F120.000 
G1 X81.597 Y-14.250 Z-12.000 F120.000 
G1 X81.000 Y-14.250 Z-12.000 F120.000 
G1 X81.000 Y-14.847 Z-12.000 F120.000 
G1 X81.000 Y-14.847 Z-15.000 F60.000 
G1 X81.000 Y-14.250 Z-15.000 F120.000 
G1 X81.597 Y-14.250 Z-15.000 F120.000 
G1 X81.000 Y-14.847 Z-15.000 F120.000 
G1 X81.000 Y-21.635 Z-15.000 F120.000 
G1 X88.385 Y-14.250 Z-15.000 F120.000 
G1 X92.000 Y-14.250 Z-15.000 F120.000 
G1 X92.000 Y-17.424 Z-15.000 F120.000 
G1 X81.000 Y-28.424 Z-15.000 F120.000 
G1 X81.000 Y-31.000 Z-15.000 F120.000 
G1 X85.212 Y-31.000 Z-15.000 F120.000 
G1 X92.000 Y-24.212 Z-15.000 F120.000 
G1 X92.000 Y-31.000 Z-15.000 F120.000 
G1 X92.000 Y-31.000 Z-18.000 F60.000 
G1 X92.000 Y-24.212 Z-18.000 F120.000 
G1 X85.212 Y-31.000 Z-18.000 F120.000 
G1 X81.000 Y-31.000 Z-18.000 F120.000 
G1 X81.000 Y-28.424 Z-18.000 F120.000 
G1 X92.000 Y-17.424 Z-18.000 F120.000 
G1 X92.000 Y-14.250 Z-18.000 F120.000 
G1 X88.385 Y-14.250 Z-18.000 F120.000 
G1 X81.000 Y-21.635 Z-18.000 F120.000 
G1 X81.000 Y-14.847 Z-18.000 F120.000 
G1 X81.597 Y-14.250 Z-18.000 F120.000 
G1 X81.000 Y-14.250 Z-18.000 F120.000 
G1 X81.000 Y-14.847 Z-18.000 F120.000 
G1 X81.000 Y-14.847 Z-19.000 F60.000 
G1 X81.000 Y-14.250 Z-19.000 F120.000 
G1 X81.597 Y-14.250 Z-19.000 F120.000 
G1 X81.000 Y-14.847 Z-19.000 F120.000 
G1 X81.000 Y-21.635 Z-19.000 F120.000 
G1 X88.385 Y-14.250 Z-19.000 F120.000 
G1 X92.000 Y-14.250 Z-19.000 F120.000 
G1 X92.000 Y-17.424 Z-19.000 F120.000 
G1 X81.000 Y-28.424 Z-19.000 F120.000 
G1 X81.000 Y-31.000 Z-19.000 F120.000 
G1 X85.212 Y-31.000 Z-19.000 F120.000 
G1 X92.000 Y-24.212 Z-19.000 F120.000 
G1 X92.000 Y-31.000 Z-19.000 F120.000 
G0 Z30.000 
G0 Z30.000 
(finish operation: keystone-oikea)
(begin postamble)
M05
G17 G54 G90 G80 G40
M2
