(Exported by FreeCAD)
(Post Processor: script_module)
(Output Time:2025-07-08 13:40:07.686474)
(begin preamble)
G17 G54 G40 G49 G80 G90
G21
(begin operation: Fixture)
(machine units: mm/min)
G54 
(finish operation: Fixture)
(begin operation: TC: Endmill_6mm001)
(machine units: mm/min)
(TC: Endmill_6mm001) 
M5
M6 T2 
G43 H2 
(finish operation: TC: Endmill_6mm001)
(begin operation: Kytkimenreikä)
(machine units: mm/min)
(Kytkimenreikä) 
G0 Z30.000 
G0 X-20.052 Y-27.573 
G0 Z3.000 
G1 X-20.052 Y-27.573 Z-3.000 F60.000 
G3 X-19.402 Y-18.437 Z-3.000 I-4.934 J4.942 F120.000 
G1 X-29.188 Y-28.223 Z-3.000 F120.000 
G2 X-31.994 Y-22.543 Z-3.000 I4.149 J5.582 F120.000 
G2 X-25.082 Y-15.631 Z-3.000 I6.986 J-0.074 F120.000 
G1 X-31.994 Y-22.543 Z-3.000 F120.000 
G1 X-31.994 Y-22.543 Z-6.000 F60.000 
G1 X-25.082 Y-15.631 Z-6.000 F120.000 
G3 X-31.994 Y-22.543 Z-6.000 I0.074 J-6.986 F120.000 
G3 X-29.188 Y-28.223 Z-6.000 I6.955 J-0.097 F120.000 
G1 X-19.402 Y-18.437 Z-6.000 F120.000 
G2 X-20.052 Y-27.573 Z-6.000 I-5.584 J-4.193 F120.000 
G1 X-20.052 Y-27.573 Z-9.000 F60.000 
G3 X-19.402 Y-18.437 Z-9.000 I-4.934 J4.942 F120.000 
G1 X-29.188 Y-28.223 Z-9.000 F120.000 
G2 X-31.994 Y-22.543 Z-9.000 I4.149 J5.582 F120.000 
G2 X-25.082 Y-15.631 Z-9.000 I6.986 J-0.074 F120.000 
G1 X-31.994 Y-22.543 Z-9.000 F120.000 
G1 X-31.994 Y-22.543 Z-12.000 F60.000 
G1 X-25.082 Y-15.631 Z-12.000 F120.000 
G3 X-31.994 Y-22.543 Z-12.000 I0.074 J-6.986 F120.000 
G3 X-29.188 Y-28.223 Z-12.000 I6.955 J-0.097 F120.000 
G1 X-19.402 Y-18.437 Z-12.000 F120.000 
G2 X-20.052 Y-27.573 Z-12.000 I-5.584 J-4.193 F120.000 
G1 X-20.052 Y-27.573 Z-15.000 F60.000 
G3 X-19.402 Y-18.437 Z-15.000 I-4.934 J4.942 F120.000 
G1 X-29.188 Y-28.223 Z-15.000 F120.000 
G2 X-31.994 Y-22.543 Z-15.000 I4.149 J5.582 F120.000 
G2 X-25.082 Y-15.631 Z-15.000 I6.986 J-0.074 F120.000 
G1 X-31.994 Y-22.543 Z-15.000 F120.000 
G1 X-31.994 Y-22.543 Z-18.000 F60.000 
G1 X-25.082 Y-15.631 Z-18.000 F120.000 
G3 X-31.994 Y-22.543 Z-18.000 I0.074 J-6.986 F120.000 
G3 X-29.188 Y-28.223 Z-18.000 I6.955 J-0.097 F120.000 
G1 X-19.402 Y-18.437 Z-18.000 F120.000 
G2 X-20.052 Y-27.573 Z-18.000 I-5.584 J-4.193 F120.000 
G1 X-20.052 Y-27.573 Z-19.000 F60.000 
G3 X-19.402 Y-18.437 Z-19.000 I-4.934 J4.942 F120.000 
G1 X-29.188 Y-28.223 Z-19.000 F120.000 
G2 X-31.994 Y-22.543 Z-19.000 I4.149 J5.582 F120.000 
G2 X-25.082 Y-15.631 Z-19.000 I6.986 J-0.074 F120.000 
G1 X-31.994 Y-22.543 Z-19.000 F120.000 
G0 Z30.000 
G0 Z30.000 
(finish operation: Kytkimenreikä)
(begin postamble)
M05
G17 G54 G90 G80 G40
M2
