(Exported by FreeCAD)
(Post Processor: script_module)
(Output Time:2025-07-08 14:07:56.894679)
(begin preamble)
G17 G54 G40 G49 G80 G90
G21
(begin operation: Fixture)
(machine units: mm/min)
G54 
(finish operation: Fixture)
(begin operation: TC: Endmill_6mm)
(machine units: mm/min)
(TC: Endmill_6mm) 
M5
M6 T2 
G43 H2 
(finish operation: TC: Endmill_6mm)
(begin operation: etu-pls-upotus)
(machine units: mm/min)
(etu-pls-upotus) 
G0 Z30.000 
G0 X57.123 Y34.361 
G0 Z3.000 
G1 X57.123 Y34.361 Z-3.000 F60.000 
G3 X53.328 Y36.250 Z-3.000 I-18.069 J-31.544 F120.000 
G1 X59.012 Y36.250 Z-3.000 F120.000 
G1 X57.123 Y34.361 Z-3.000 F120.000 
G2 X61.232 Y31.682 Z-3.000 I-18.248 J-32.487 F120.000 
G1 X65.625 Y36.075 Z-3.000 F120.000 
G2 X70.250 Y33.912 Z-3.000 I-1.743 J-9.756 F120.000 
G1 X64.910 Y28.572 Z-3.000 F120.000 
G2 X68.182 Y25.055 Z-3.000 I-24.868 J-26.413 F120.000 
G1 X73.129 Y30.002 Z-3.000 F120.000 
G2 X73.870 Y26.905 Z-3.000 I-8.997 J-3.789 F120.000 
G2 X73.900 Y23.985 Z-3.000 I-38.996 J-1.865 F120.000 
G1 X71.027 Y21.112 Z-3.000 F120.000 
G2 X73.425 Y16.722 Z-3.000 I-30.282 J-19.390 F120.000 
G1 X73.900 Y17.197 Z-3.000 F120.000 
G1 X73.900 Y15.678 Z-3.000 F120.000 
G3 X73.425 Y16.722 Z-3.000 I-12.490 J-5.050 F120.000 
G0 Z30.000 
G0 X73.900 Y-15.678 Z30.000 
G0 X73.900 Y-15.678 Z3.000 
G1 X73.900 Y-15.678 Z-3.000 F60.000 
G1 X73.900 Y-16.744 Z-3.000 F120.000 
G1 X72.979 Y-17.665 Z-3.000 F120.000 
G3 X73.900 Y-15.678 Z-3.000 I-24.866 J12.731 F120.000 
G0 Z30.000 
G0 X70.668 Y-33.552 Z30.000 
G0 X70.668 Y-33.552 Z3.000 
G1 X70.668 Y-33.552 Z-3.000 F60.000 
G3 X73.900 Y-26.094 Z-3.000 I-6.881 J7.411 F120.000 
G1 X73.900 Y-23.532 Z-3.000 F120.000 
G1 X61.182 Y-36.250 Z-3.000 F120.000 
G1 X54.394 Y-36.250 Z-3.000 F120.000 
G1 X53.328 Y-36.250 Z-3.000 F120.000 
G3 X55.315 Y-35.329 Z-3.000 I-10.743 J25.787 F120.000 
G1 X54.394 Y-36.250 Z-3.000 F120.000 
G0 Z30.000 
G0 X20.453 Z30.000 
G0 X20.453 Z3.000 
G1 X20.453 Y-36.250 Z-3.000 F60.000 
G1 X21.972 Y-36.250 Z-3.000 F120.000 
G2 X20.928 Y-35.775 Z-3.000 I5.050 J12.490 F120.000 
G1 X20.453 Y-36.250 Z-3.000 F120.000 
G1 X13.665 Y-36.250 Z-3.000 F120.000 
G1 X16.538 Y-33.377 Z-3.000 F120.000 
G2 X12.595 Y-30.532 Z-3.000 I19.839 J31.645 F120.000 
G1 X7.648 Y-35.479 Z-3.000 F120.000 
G2 X3.738 Y-32.600 Z-3.000 I3.744 J9.180 F120.000 
G1 X9.078 Y-27.260 Z-3.000 F120.000 
G2 X5.968 Y-23.582 Z-3.000 I25.944 J25.093 F120.000 
G1 X1.575 Y-27.975 Z-3.000 F120.000 
G2 X1.400 Y-26.094 Z-3.000 I9.545 J1.839 F120.000 
G1 X1.400 Y-21.362 Z-3.000 F120.000 
G1 X3.289 Y-19.473 Z-3.000 F120.000 
G2 X1.400 Y-15.678 Z-3.000 I31.544 J18.069 F120.000 
G1 X1.400 Y-21.362 Z-3.000 F120.000 
G0 Z30.000 
G0 X7.236 Y25.203 Z30.000 
G0 X7.236 Y25.203 Z3.000 
G1 X7.236 Y25.203 Z-3.000 F60.000 
G3 X1.400 Y15.678 Z-3.000 I30.266 J-25.093 F120.000 
G1 X1.400 Y19.367 Z-3.000 F120.000 
G1 X7.236 Y25.203 Z-3.000 F120.000 
G2 X12.447 Y30.414 Z-3.000 I30.369 J-25.158 F120.000 
G1 X18.283 Y36.250 Z-3.000 F120.000 
G1 X11.556 Y36.250 Z-3.000 F120.000 
G1 X11.492 Y36.248 Z-3.000 F120.000 
G1 X1.402 Y26.158 Z-3.000 F120.000 
G2 X11.492 Y36.248 Z-3.000 I10.097 J-0.007 F120.000 
G0 Z30.000 
G0 X14.886 Y32.853 Z30.000 
G0 X14.886 Y32.853 Z3.000 
G1 X14.886 Y32.853 Z-3.000 F60.000 
G1 X12.447 Y30.414 Z-3.000 F120.000 
G2 X21.972 Y36.250 Z-3.000 I25.093 J-30.266 F120.000 
G1 X18.283 Y36.250 Z-3.000 F120.000 
G1 X14.886 Y32.853 Z-3.000 F120.000 
G1 X14.886 Y32.853 Z-4.000 F60.000 
G1 X12.447 Y30.414 Z-4.000 F120.000 
G2 X21.972 Y36.250 Z-4.000 I25.093 J-30.266 F120.000 
G1 X18.283 Y36.250 Z-4.000 F120.000 
G1 X14.886 Y32.853 Z-4.000 F120.000 
G0 Z30.000 
G0 X11.492 Y36.248 Z30.000 
G0 X11.492 Y36.248 Z3.000 
G1 X11.492 Y36.248 Z-4.000 F60.000 
G3 X1.402 Y26.158 Z-4.000 I0.007 J-10.097 F120.000 
G1 X11.492 Y36.248 Z-4.000 F120.000 
G1 X11.556 Y36.250 Z-4.000 F120.000 
G1 X18.283 Y36.250 Z-4.000 F120.000 
G1 X12.447 Y30.414 Z-4.000 F120.000 
G3 X7.236 Y25.203 Z-4.000 I25.158 J-30.369 F120.000 
G1 X1.400 Y19.367 Z-4.000 F120.000 
G1 X1.400 Y15.678 Z-4.000 F120.000 
G2 X7.236 Y25.203 Z-4.000 I36.102 J-15.568 F120.000 
G0 Z30.000 
G0 X1.400 Y-21.362 Z30.000 
G0 X1.400 Y-21.362 Z3.000 
G1 X1.400 Y-21.362 Z-4.000 F60.000 
G1 X1.400 Y-15.678 Z-4.000 F120.000 
G3 X3.289 Y-19.473 Z-4.000 I33.433 J14.274 F120.000 
G1 X1.400 Y-21.362 Z-4.000 F120.000 
G1 X1.400 Y-26.094 Z-4.000 F120.000 
G3 X1.575 Y-27.975 Z-4.000 I9.720 J-0.042 F120.000 
G1 X5.968 Y-23.582 Z-4.000 F120.000 
G3 X9.078 Y-27.260 Z-4.000 I29.054 J21.415 F120.000 
G1 X3.738 Y-32.600 Z-4.000 F120.000 
G3 X7.648 Y-35.479 Z-4.000 I7.654 J6.302 F120.000 
G1 X12.595 Y-30.532 Z-4.000 F120.000 
G3 X16.538 Y-33.377 Z-4.000 I23.782 J28.799 F120.000 
G1 X13.665 Y-36.250 Z-4.000 F120.000 
G1 X20.453 Y-36.250 Z-4.000 F120.000 
G1 X20.928 Y-35.775 Z-4.000 F120.000 
G3 X21.972 Y-36.250 Z-4.000 I6.094 J12.015 F120.000 
G1 X20.453 Y-36.250 Z-4.000 F120.000 
G0 Z30.000 
G0 X54.394 Z30.000 
G0 X54.394 Z3.000 
G1 X54.394 Y-36.250 Z-4.000 F60.000 
G1 X55.315 Y-35.329 Z-4.000 F120.000 
G2 X53.328 Y-36.250 Z-4.000 I-12.731 J24.866 F120.000 
G1 X54.394 Y-36.250 Z-4.000 F120.000 
G1 X61.182 Y-36.250 Z-4.000 F120.000 
G1 X73.900 Y-23.532 Z-4.000 F120.000 
G1 X73.900 Y-26.094 Z-4.000 F120.000 
G2 X70.668 Y-33.552 Z-4.000 I-10.112 J-0.048 F120.000 
G0 Z30.000 
G0 X72.979 Y-17.665 Z30.000 
G0 X72.979 Y-17.665 Z3.000 
G1 X72.979 Y-17.665 Z-4.000 F60.000 
G3 X73.900 Y-15.678 Z-4.000 I-24.866 J12.731 F120.000 
G1 X73.900 Y-16.744 Z-4.000 F120.000 
G1 X72.979 Y-17.665 Z-4.000 F120.000 
G0 Z30.000 
G0 X73.425 Y16.722 Z30.000 
G0 X73.425 Y16.722 Z3.000 
G1 X73.425 Y16.722 Z-4.000 F60.000 
G2 X73.900 Y15.678 Z-4.000 I-12.015 J-6.094 F120.000 
G1 X73.900 Y17.197 Z-4.000 F120.000 
G1 X73.425 Y16.722 Z-4.000 F120.000 
G3 X71.027 Y21.112 Z-4.000 I-32.680 J-14.999 F120.000 
G1 X73.900 Y23.985 Z-4.000 F120.000 
G3 X73.870 Y26.905 Z-4.000 I-39.027 J1.054 F120.000 
G3 X73.129 Y30.002 Z-4.000 I-9.738 J-0.692 F120.000 
G1 X68.182 Y25.055 Z-4.000 F120.000 
G3 X64.910 Y28.572 Z-4.000 I-28.140 J-22.896 F120.000 
G1 X70.250 Y33.912 Z-4.000 F120.000 
G3 X65.625 Y36.075 Z-4.000 I-6.368 J-7.593 F120.000 
G1 X61.232 Y31.682 Z-4.000 F120.000 
G3 X57.123 Y34.361 Z-4.000 I-22.358 J-29.808 F120.000 
G1 X59.012 Y36.250 Z-4.000 F120.000 
G1 X53.328 Y36.250 Z-4.000 F120.000 
G2 X57.123 Y34.361 Z-4.000 I-14.274 J-33.433 F120.000 
G1 X57.123 Y34.361 Z-5.000 F60.000 
G3 X53.328 Y36.250 Z-5.000 I-18.069 J-31.544 F120.000 
G1 X59.012 Y36.250 Z-5.000 F120.000 
G1 X57.123 Y34.361 Z-5.000 F120.000 
G2 X61.232 Y31.682 Z-5.000 I-18.248 J-32.487 F120.000 
G1 X65.625 Y36.075 Z-5.000 F120.000 
G2 X70.250 Y33.912 Z-5.000 I-1.743 J-9.756 F120.000 
G1 X64.910 Y28.572 Z-5.000 F120.000 
G2 X68.182 Y25.055 Z-5.000 I-24.868 J-26.413 F120.000 
G1 X73.129 Y30.002 Z-5.000 F120.000 
G2 X73.870 Y26.905 Z-5.000 I-8.997 J-3.789 F120.000 
G2 X73.900 Y23.985 Z-5.000 I-38.996 J-1.865 F120.000 
G1 X71.027 Y21.112 Z-5.000 F120.000 
G2 X73.425 Y16.722 Z-5.000 I-30.282 J-19.390 F120.000 
G1 X73.900 Y17.197 Z-5.000 F120.000 
G1 X73.900 Y15.678 Z-5.000 F120.000 
G3 X73.425 Y16.722 Z-5.000 I-12.490 J-5.050 F120.000 
G0 Z30.000 
G0 X73.900 Y-15.678 Z30.000 
G0 X73.900 Y-15.678 Z3.000 
G1 X73.900 Y-15.678 Z-5.000 F60.000 
G1 X73.900 Y-16.744 Z-5.000 F120.000 
G1 X72.979 Y-17.665 Z-5.000 F120.000 
G3 X73.900 Y-15.678 Z-5.000 I-24.866 J12.731 F120.000 
G0 Z30.000 
G0 X70.668 Y-33.552 Z30.000 
G0 X70.668 Y-33.552 Z3.000 
G1 X70.668 Y-33.552 Z-5.000 F60.000 
G3 X73.900 Y-26.094 Z-5.000 I-6.881 J7.411 F120.000 
G1 X73.900 Y-23.532 Z-5.000 F120.000 
G1 X61.182 Y-36.250 Z-5.000 F120.000 
G1 X54.394 Y-36.250 Z-5.000 F120.000 
G1 X53.328 Y-36.250 Z-5.000 F120.000 
G3 X55.315 Y-35.329 Z-5.000 I-10.743 J25.787 F120.000 
G1 X54.394 Y-36.250 Z-5.000 F120.000 
G0 Z30.000 
G0 X20.453 Z30.000 
G0 X20.453 Z3.000 
G1 X20.453 Y-36.250 Z-5.000 F60.000 
G1 X21.972 Y-36.250 Z-5.000 F120.000 
G2 X20.928 Y-35.775 Z-5.000 I5.050 J12.490 F120.000 
G1 X20.453 Y-36.250 Z-5.000 F120.000 
G1 X13.665 Y-36.250 Z-5.000 F120.000 
G1 X16.538 Y-33.377 Z-5.000 F120.000 
G2 X12.595 Y-30.532 Z-5.000 I19.839 J31.645 F120.000 
G1 X7.648 Y-35.479 Z-5.000 F120.000 
G2 X3.738 Y-32.600 Z-5.000 I3.744 J9.180 F120.000 
G1 X9.078 Y-27.260 Z-5.000 F120.000 
G2 X5.968 Y-23.582 Z-5.000 I25.944 J25.093 F120.000 
G1 X1.575 Y-27.975 Z-5.000 F120.000 
G2 X1.400 Y-26.094 Z-5.000 I9.545 J1.839 F120.000 
G1 X1.400 Y-21.362 Z-5.000 F120.000 
G1 X3.289 Y-19.473 Z-5.000 F120.000 
G2 X1.400 Y-15.678 Z-5.000 I31.544 J18.069 F120.000 
G1 X1.400 Y-21.362 Z-5.000 F120.000 
G0 Z30.000 
G0 X7.236 Y25.203 Z30.000 
G0 X7.236 Y25.203 Z3.000 
G1 X7.236 Y25.203 Z-5.000 F60.000 
G3 X1.400 Y15.678 Z-5.000 I30.266 J-25.093 F120.000 
G1 X1.400 Y19.367 Z-5.000 F120.000 
G1 X7.236 Y25.203 Z-5.000 F120.000 
G2 X12.447 Y30.414 Z-5.000 I30.369 J-25.158 F120.000 
G1 X18.283 Y36.250 Z-5.000 F120.000 
G1 X11.556 Y36.250 Z-5.000 F120.000 
G1 X11.492 Y36.248 Z-5.000 F120.000 
G1 X1.402 Y26.158 Z-5.000 F120.000 
G2 X11.492 Y36.248 Z-5.000 I10.097 J-0.007 F120.000 
G0 Z30.000 
G0 X14.886 Y32.853 Z30.000 
G0 X14.886 Y32.853 Z3.000 
G1 X14.886 Y32.853 Z-5.000 F60.000 
G1 X12.447 Y30.414 Z-5.000 F120.000 
G2 X21.972 Y36.250 Z-5.000 I25.093 J-30.266 F120.000 
G1 X18.283 Y36.250 Z-5.000 F120.000 
G1 X14.886 Y32.853 Z-5.000 F120.000 
G0 Z30.000 
G0 Z30.000 
(finish operation: etu-pls-upotus)
(begin postamble)
M05
G17 G54 G90 G80 G40
M2
