(Exported by FreeCAD)
(Post Processor: script_module)
(Output Time:2025-07-08 14:05:34.224531)
(begin preamble)
G17 G54 G40 G49 G80 G90
G21
(begin operation: Fixture)
(machine units: mm/min)
G54 
(finish operation: Fixture)
(begin operation: TC: Endmill_6mm)
(machine units: mm/min)
(TC: Endmill_6mm) 
M5
M6 T2 
G43 H2 
(finish operation: TC: Endmill_6mm)
(begin operation: etu-pls-reunat)
(machine units: mm/min)
(Profile) 
(Compensated Tool Path. Diameter: 6.0) 
G0 Z30.000 
G0 X70.940 Y33.290 
G0 Z3.000 
G1 X70.940 Y33.290 Z-3.000 F60.000 
G2 X73.900 Y26.094 Z-3.000 I-7.146 J-7.146 F120.000 
G1 X73.900 Y-26.094 Z-3.000 F120.000 
G2 X63.744 Y-36.250 Z-3.000 I-10.105 J-0.051 F120.000 
G1 X11.556 Y-36.250 Z-3.000 F120.000 
G2 X1.400 Y-26.094 Z-3.000 I-0.051 J10.105 F120.000 
G1 X1.400 Y26.094 Z-3.000 F120.000 
G2 X11.556 Y36.250 Z-3.000 I10.105 J0.051 F120.000 
G1 X63.744 Y36.250 Z-3.000 F120.000 
G2 X70.940 Y33.290 Z-3.000 I0.051 J-10.105 F120.000 
G1 X70.940 Y33.290 Z-5.000 F60.000 
G2 X73.900 Y26.094 Z-5.000 I-7.146 J-7.146 F120.000 
G1 X73.900 Y-26.094 Z-5.000 F120.000 
G2 X63.744 Y-36.250 Z-5.000 I-10.105 J-0.051 F120.000 
G1 X11.556 Y-36.250 Z-5.000 F120.000 
G2 X1.400 Y-26.094 Z-5.000 I-0.051 J10.105 F120.000 
G1 X1.400 Y26.094 Z-5.000 F120.000 
G2 X11.556 Y36.250 Z-5.000 I10.105 J0.051 F120.000 
G1 X63.744 Y36.250 Z-5.000 F120.000 
G2 X70.940 Y33.290 Z-5.000 I0.051 J-10.105 F120.000 
G0 Z30.000 
G0 Z30.000 
(finish operation: etu-pls-reunat)
(begin postamble)
M05
G17 G54 G90 G80 G40
M2
