(Exported by FreeCAD)
(Post Processor: script_module)
(Output Time:2025-07-08 14:12:34.749162)
(begin preamble)
G17 G54 G40 G49 G80 G90
G21
(begin operation: Fixture)
(machine units: mm/min)
G54 
(finish operation: Fixture)
(begin operation: TC: Endmill_6mm)
(machine units: mm/min)
(TC: Endmill_6mm) 
M5
M6 T2 
G43 H2 
(finish operation: TC: Endmill_6mm)
(begin operation: etu-pls-läpi)
(machine units: mm/min)
(etu-pls-läpi) 
G0 Z30.000 
G0 X29.180 Y32.401 
G0 Z3.000 
G1 X29.180 Y32.401 Z-3.000 F60.000 
G1 X5.249 Y8.470 Z-3.000 F120.000 
G2 X29.180 Y32.401 Z-3.000 I32.356 J-8.425 F120.000 
G2 X37.052 Y33.485 Z-3.000 I8.310 J-31.225 F120.000 
G1 X4.165 Y0.598 Z-3.000 F120.000 
G3 X4.648 Y-5.707 Z-3.000 I31.578 J-0.750 F120.000 
G1 X43.357 Y33.002 Z-3.000 F120.000 
G2 X48.744 Y31.601 Z-3.000 I-5.155 J-30.875 F120.000 
G1 X6.049 Y-11.094 Z-3.000 F120.000 
G3 X8.124 Y-15.807 Z-3.000 I29.327 J10.097 F120.000 
G1 X53.457 Y29.526 Z-3.000 F120.000 
G2 X57.614 Y26.894 Z-3.000 I-14.484 J-27.474 F120.000 
G1 X10.756 Y-19.964 Z-3.000 F120.000 
G3 X13.893 Y-23.615 Z-3.000 I25.696 J18.906 F120.000 
G1 X61.265 Y23.757 Z-3.000 F120.000 
G2 X64.425 Y20.129 Z-3.000 I-22.987 J-23.216 F120.000 
G1 X17.521 Y-26.775 Z-3.000 F120.000 
G3 X21.656 Y-29.428 Z-3.000 I19.210 J25.401 F120.000 
G1 X67.078 Y15.994 Z-3.000 F120.000 
G2 X69.175 Y11.303 Z-3.000 I-27.231 J-14.993 F120.000 
G1 X26.347 Y-31.525 Z-3.000 F120.000 
G3 X31.698 Y-32.962 Z-3.000 I10.818 J29.608 F120.000 
G1 X70.612 Y5.952 Z-3.000 F120.000 
G2 X71.142 Y-0.306 Z-3.000 I-31.895 J-5.853 F120.000 
G1 X37.956 Y-33.492 Z-3.000 F120.000 
G3 X45.735 Y-32.501 Z-3.000 I-0.195 J32.570 F120.000 
G1 X70.151 Y-8.085 Z-3.000 F120.000 
G2 X61.338 Y-23.688 Z-3.000 I-32.421 J8.024 F120.000 
G1 X61.338 Y-23.688 Z-6.000 F60.000 
G3 X70.151 Y-8.085 Z-6.000 I-23.607 J23.626 F120.000 
G1 X45.735 Y-32.501 Z-6.000 F120.000 
G2 X37.956 Y-33.492 Z-6.000 I-7.974 J31.579 F120.000 
G1 X71.142 Y-0.306 Z-6.000 F120.000 
G3 X70.612 Y5.952 Z-6.000 I-32.425 J0.405 F120.000 
G1 X31.698 Y-32.962 Z-6.000 F120.000 
G2 X26.347 Y-31.525 Z-6.000 I5.466 J31.044 F120.000 
G1 X69.175 Y11.303 Z-6.000 F120.000 
G3 X67.078 Y15.994 Z-6.000 I-29.329 J-10.302 F120.000 
G1 X21.656 Y-29.428 Z-6.000 F120.000 
G2 X17.521 Y-26.775 Z-6.000 I15.075 J28.053 F120.000 
G1 X64.425 Y20.129 Z-6.000 F120.000 
G3 X61.265 Y23.757 Z-6.000 I-26.148 J-19.588 F120.000 
G1 X13.893 Y-23.615 Z-6.000 F120.000 
G2 X10.756 Y-19.964 Z-6.000 I22.559 J22.557 F120.000 
G1 X57.614 Y26.894 Z-6.000 F120.000 
G3 X53.457 Y29.526 Z-6.000 I-18.640 J-24.843 F120.000 
G1 X8.124 Y-15.807 Z-6.000 F120.000 
G2 X6.049 Y-11.094 Z-6.000 I27.252 J14.810 F120.000 
G1 X48.744 Y31.601 Z-6.000 F120.000 
G3 X43.357 Y33.002 Z-6.000 I-10.542 J-29.474 F120.000 
G1 X4.648 Y-5.707 Z-6.000 F120.000 
G2 X4.165 Y0.598 Z-6.000 I31.095 J5.555 F120.000 
G1 X37.052 Y33.485 Z-6.000 F120.000 
G3 X29.180 Y32.401 Z-6.000 I0.438 J-32.309 F120.000 
G3 X5.249 Y8.470 Z-6.000 I8.425 J-32.356 F120.000 
G1 X29.180 Y32.401 Z-6.000 F120.000 
G1 X29.180 Y32.401 Z-9.000 F60.000 
G1 X5.249 Y8.470 Z-9.000 F120.000 
G2 X29.180 Y32.401 Z-9.000 I32.356 J-8.425 F120.000 
G2 X37.052 Y33.485 Z-9.000 I8.310 J-31.225 F120.000 
G1 X4.165 Y0.598 Z-9.000 F120.000 
G3 X4.648 Y-5.707 Z-9.000 I31.578 J-0.750 F120.000 
G1 X43.357 Y33.002 Z-9.000 F120.000 
G2 X48.744 Y31.601 Z-9.000 I-5.155 J-30.875 F120.000 
G1 X6.049 Y-11.094 Z-9.000 F120.000 
G3 X8.124 Y-15.807 Z-9.000 I29.327 J10.097 F120.000 
G1 X53.457 Y29.526 Z-9.000 F120.000 
G2 X57.614 Y26.894 Z-9.000 I-14.484 J-27.474 F120.000 
G1 X10.756 Y-19.964 Z-9.000 F120.000 
G3 X13.893 Y-23.615 Z-9.000 I25.696 J18.906 F120.000 
G1 X61.265 Y23.757 Z-9.000 F120.000 
G2 X64.425 Y20.129 Z-9.000 I-22.987 J-23.216 F120.000 
G1 X17.521 Y-26.775 Z-9.000 F120.000 
G3 X21.656 Y-29.428 Z-9.000 I19.210 J25.401 F120.000 
G1 X67.078 Y15.994 Z-9.000 F120.000 
G2 X69.175 Y11.303 Z-9.000 I-27.231 J-14.993 F120.000 
G1 X26.347 Y-31.525 Z-9.000 F120.000 
G3 X31.698 Y-32.962 Z-9.000 I10.818 J29.608 F120.000 
G1 X70.612 Y5.952 Z-9.000 F120.000 
G2 X71.142 Y-0.306 Z-9.000 I-31.895 J-5.853 F120.000 
G1 X37.956 Y-33.492 Z-9.000 F120.000 
G3 X45.735 Y-32.501 Z-9.000 I-0.195 J32.570 F120.000 
G1 X70.151 Y-8.085 Z-9.000 F120.000 
G2 X61.338 Y-23.688 Z-9.000 I-32.421 J8.024 F120.000 
G1 X61.338 Y-23.688 Z-12.000 F60.000 
G3 X70.151 Y-8.085 Z-12.000 I-23.607 J23.626 F120.000 
G1 X45.735 Y-32.501 Z-12.000 F120.000 
G2 X37.956 Y-33.492 Z-12.000 I-7.974 J31.579 F120.000 
G1 X71.142 Y-0.306 Z-12.000 F120.000 
G3 X70.612 Y5.952 Z-12.000 I-32.425 J0.405 F120.000 
G1 X31.698 Y-32.962 Z-12.000 F120.000 
G2 X26.347 Y-31.525 Z-12.000 I5.466 J31.044 F120.000 
G1 X69.175 Y11.303 Z-12.000 F120.000 
G3 X67.078 Y15.994 Z-12.000 I-29.329 J-10.302 F120.000 
G1 X21.656 Y-29.428 Z-12.000 F120.000 
G2 X17.521 Y-26.775 Z-12.000 I15.075 J28.053 F120.000 
G1 X64.425 Y20.129 Z-12.000 F120.000 
G3 X61.265 Y23.757 Z-12.000 I-26.148 J-19.588 F120.000 
G1 X13.893 Y-23.615 Z-12.000 F120.000 
G2 X10.756 Y-19.964 Z-12.000 I22.559 J22.557 F120.000 
G1 X57.614 Y26.894 Z-12.000 F120.000 
G3 X53.457 Y29.526 Z-12.000 I-18.640 J-24.843 F120.000 
G1 X8.124 Y-15.807 Z-12.000 F120.000 
G2 X6.049 Y-11.094 Z-12.000 I27.252 J14.810 F120.000 
G1 X48.744 Y31.601 Z-12.000 F120.000 
G3 X43.357 Y33.002 Z-12.000 I-10.542 J-29.474 F120.000 
G1 X4.648 Y-5.707 Z-12.000 F120.000 
G2 X4.165 Y0.598 Z-12.000 I31.095 J5.555 F120.000 
G1 X37.052 Y33.485 Z-12.000 F120.000 
G3 X29.180 Y32.401 Z-12.000 I0.438 J-32.309 F120.000 
G3 X5.249 Y8.470 Z-12.000 I8.425 J-32.356 F120.000 
G1 X29.180 Y32.401 Z-12.000 F120.000 
G1 X29.180 Y32.401 Z-15.000 F60.000 
G1 X5.249 Y8.470 Z-15.000 F120.000 
G2 X29.180 Y32.401 Z-15.000 I32.356 J-8.425 F120.000 
G2 X37.052 Y33.485 Z-15.000 I8.310 J-31.225 F120.000 
G1 X4.165 Y0.598 Z-15.000 F120.000 
G3 X4.648 Y-5.707 Z-15.000 I31.578 J-0.750 F120.000 
G1 X43.357 Y33.002 Z-15.000 F120.000 
G2 X48.744 Y31.601 Z-15.000 I-5.155 J-30.875 F120.000 
G1 X6.049 Y-11.094 Z-15.000 F120.000 
G3 X8.124 Y-15.807 Z-15.000 I29.327 J10.097 F120.000 
G1 X53.457 Y29.526 Z-15.000 F120.000 
G2 X57.614 Y26.894 Z-15.000 I-14.484 J-27.474 F120.000 
G1 X10.756 Y-19.964 Z-15.000 F120.000 
G3 X13.893 Y-23.615 Z-15.000 I25.696 J18.906 F120.000 
G1 X61.265 Y23.757 Z-15.000 F120.000 
G2 X64.425 Y20.129 Z-15.000 I-22.987 J-23.216 F120.000 
G1 X17.521 Y-26.775 Z-15.000 F120.000 
G3 X21.656 Y-29.428 Z-15.000 I19.210 J25.401 F120.000 
G1 X67.078 Y15.994 Z-15.000 F120.000 
G2 X69.175 Y11.303 Z-15.000 I-27.231 J-14.993 F120.000 
G1 X26.347 Y-31.525 Z-15.000 F120.000 
G3 X31.698 Y-32.962 Z-15.000 I10.818 J29.608 F120.000 
G1 X70.612 Y5.952 Z-15.000 F120.000 
G2 X71.142 Y-0.306 Z-15.000 I-31.895 J-5.853 F120.000 
G1 X37.956 Y-33.492 Z-15.000 F120.000 
G3 X45.735 Y-32.501 Z-15.000 I-0.195 J32.570 F120.000 
G1 X70.151 Y-8.085 Z-15.000 F120.000 
G2 X61.338 Y-23.688 Z-15.000 I-32.421 J8.024 F120.000 
G1 X61.338 Y-23.688 Z-18.000 F60.000 
G3 X70.151 Y-8.085 Z-18.000 I-23.607 J23.626 F120.000 
G1 X45.735 Y-32.501 Z-18.000 F120.000 
G2 X37.956 Y-33.492 Z-18.000 I-7.974 J31.579 F120.000 
G1 X71.142 Y-0.306 Z-18.000 F120.000 
G3 X70.612 Y5.952 Z-18.000 I-32.425 J0.405 F120.000 
G1 X31.698 Y-32.962 Z-18.000 F120.000 
G2 X26.347 Y-31.525 Z-18.000 I5.466 J31.044 F120.000 
G1 X69.175 Y11.303 Z-18.000 F120.000 
G3 X67.078 Y15.994 Z-18.000 I-29.329 J-10.302 F120.000 
G1 X21.656 Y-29.428 Z-18.000 F120.000 
G2 X17.521 Y-26.775 Z-18.000 I15.075 J28.053 F120.000 
G1 X64.425 Y20.129 Z-18.000 F120.000 
G3 X61.265 Y23.757 Z-18.000 I-26.148 J-19.588 F120.000 
G1 X13.893 Y-23.615 Z-18.000 F120.000 
G2 X10.756 Y-19.964 Z-18.000 I22.559 J22.557 F120.000 
G1 X57.614 Y26.894 Z-18.000 F120.000 
G3 X53.457 Y29.526 Z-18.000 I-18.640 J-24.843 F120.000 
G1 X8.124 Y-15.807 Z-18.000 F120.000 
G2 X6.049 Y-11.094 Z-18.000 I27.252 J14.810 F120.000 
G1 X48.744 Y31.601 Z-18.000 F120.000 
G3 X43.357 Y33.002 Z-18.000 I-10.542 J-29.474 F120.000 
G1 X4.648 Y-5.707 Z-18.000 F120.000 
G2 X4.165 Y0.598 Z-18.000 I31.095 J5.555 F120.000 
G1 X37.052 Y33.485 Z-18.000 F120.000 
G3 X29.180 Y32.401 Z-18.000 I0.438 J-32.309 F120.000 
G3 X5.249 Y8.470 Z-18.000 I8.425 J-32.356 F120.000 
G1 X29.180 Y32.401 Z-18.000 F120.000 
G1 X29.180 Y32.401 Z-19.000 F60.000 
G1 X5.249 Y8.470 Z-19.000 F120.000 
G2 X29.180 Y32.401 Z-19.000 I32.356 J-8.425 F120.000 
G2 X37.052 Y33.485 Z-19.000 I8.310 J-31.225 F120.000 
G1 X4.165 Y0.598 Z-19.000 F120.000 
G3 X4.648 Y-5.707 Z-19.000 I31.578 J-0.750 F120.000 
G1 X43.357 Y33.002 Z-19.000 F120.000 
G2 X48.744 Y31.601 Z-19.000 I-5.155 J-30.875 F120.000 
G1 X6.049 Y-11.094 Z-19.000 F120.000 
G3 X8.124 Y-15.807 Z-19.000 I29.327 J10.097 F120.000 
G1 X53.457 Y29.526 Z-19.000 F120.000 
G2 X57.614 Y26.894 Z-19.000 I-14.484 J-27.474 F120.000 
G1 X10.756 Y-19.964 Z-19.000 F120.000 
G3 X13.893 Y-23.615 Z-19.000 I25.696 J18.906 F120.000 
G1 X61.265 Y23.757 Z-19.000 F120.000 
G2 X64.425 Y20.129 Z-19.000 I-22.987 J-23.216 F120.000 
G1 X17.521 Y-26.775 Z-19.000 F120.000 
G3 X21.656 Y-29.428 Z-19.000 I19.210 J25.401 F120.000 
G1 X67.078 Y15.994 Z-19.000 F120.000 
G2 X69.175 Y11.303 Z-19.000 I-27.231 J-14.993 F120.000 
G1 X26.347 Y-31.525 Z-19.000 F120.000 
G3 X31.698 Y-32.962 Z-19.000 I10.818 J29.608 F120.000 
G1 X70.612 Y5.952 Z-19.000 F120.000 
G2 X71.142 Y-0.306 Z-19.000 I-31.895 J-5.853 F120.000 
G1 X37.956 Y-33.492 Z-19.000 F120.000 
G3 X45.735 Y-32.501 Z-19.000 I-0.195 J32.570 F120.000 
G1 X70.151 Y-8.085 Z-19.000 F120.000 
G2 X61.338 Y-23.688 Z-19.000 I-32.421 J8.024 F120.000 
G0 Z30.000 
G0 Z30.000 
(finish operation: etu-pls-läpi)
(begin postamble)
M05
G17 G54 G90 G80 G40
M2
