(Exported by FreeCAD)
(Post Processor: script_module)
(Output Time:2025-07-08 14:11:37.688090)
(begin preamble)
G17 G54 G40 G49 G80 G90
G21
(begin operation: Fixture)
(machine units: mm/min)
G54 
(finish operation: Fixture)
(begin operation: TC: Endmill_6mm)
(machine units: mm/min)
(TC: Endmill_6mm) 
M5
M6 T2 
G43 H2 
(finish operation: TC: Endmill_6mm)
(begin operation: etu-kytkin)
(machine units: mm/min)
(etu-kytkin) 
G0 Z30.000 
G0 X-28.413 Y1.587 
G0 Z3.000 
G1 X-28.413 Y1.587 Z-3.000 F60.000 
G2 X-28.320 Y-1.488 Z-3.000 I-1.587 J-1.587 F120.000 
G2 X-31.680 Y1.488 Z-3.000 I-1.680 J1.488 F120.000 
G2 X-28.413 Y1.587 Z-3.000 I1.680 J-1.488 F120.000 
G1 X-28.413 Y1.587 Z-6.000 F60.000 
G2 X-28.320 Y-1.488 Z-6.000 I-1.587 J-1.587 F120.000 
G2 X-31.680 Y1.488 Z-6.000 I-1.680 J1.488 F120.000 
G2 X-28.413 Y1.587 Z-6.000 I1.680 J-1.488 F120.000 
G1 X-28.413 Y1.587 Z-9.000 F60.000 
G2 X-28.320 Y-1.488 Z-9.000 I-1.587 J-1.587 F120.000 
G2 X-31.680 Y1.488 Z-9.000 I-1.680 J1.488 F120.000 
G2 X-28.413 Y1.587 Z-9.000 I1.680 J-1.488 F120.000 
G1 X-28.413 Y1.587 Z-12.000 F60.000 
G2 X-28.320 Y-1.488 Z-12.000 I-1.587 J-1.587 F120.000 
G2 X-31.680 Y1.488 Z-12.000 I-1.680 J1.488 F120.000 
G2 X-28.413 Y1.587 Z-12.000 I1.680 J-1.488 F120.000 
G1 X-28.413 Y1.587 Z-15.000 F60.000 
G2 X-28.320 Y-1.488 Z-15.000 I-1.587 J-1.587 F120.000 
G2 X-31.680 Y1.488 Z-15.000 I-1.680 J1.488 F120.000 
G2 X-28.413 Y1.587 Z-15.000 I1.680 J-1.488 F120.000 
G1 X-28.413 Y1.587 Z-18.000 F60.000 
G2 X-28.320 Y-1.488 Z-18.000 I-1.587 J-1.587 F120.000 
G2 X-31.680 Y1.488 Z-18.000 I-1.680 J1.488 F120.000 
G2 X-28.413 Y1.587 Z-18.000 I1.680 J-1.488 F120.000 
G1 X-28.413 Y1.587 Z-19.000 F60.000 
G2 X-28.320 Y-1.488 Z-19.000 I-1.587 J-1.587 F120.000 
G2 X-31.680 Y1.488 Z-19.000 I-1.680 J1.488 F120.000 
G2 X-28.413 Y1.587 Z-19.000 I1.680 J-1.488 F120.000 
G0 Z30.000 
G0 Z30.000 
(finish operation: etu-kytkin)
(begin postamble)
M05
G17 G54 G90 G80 G40
M2
