(Exported by FreeCAD)
(Post Processor: script_module)
(Output Time:2025-07-15 10:55:13.623509)
(begin preamble)
G17 G54 G40 G49 G80 G90
G21
(begin operation: Fixture)
(machine units: mm/min)
G54 
(finish operation: Fixture)
(begin operation: TC: 4mm_20mm_endmill)
(machine units: mm/min)
(TC: 4mm_20mm_endmill) 
M5
M6 T3 
G43 H3 
(finish operation: TC: 4mm_20mm_endmill)
(begin operation: profile-liitin-4mm)
(machine units: mm/min)
(profile-liitin-4mm) 
(Compensated Tool Path. Diameter: 4.0) 
G0 Z30.000 
G0 X-66.130 Y75.750 Z10.000 
G0 Z30.000 
G1 X-66.130 Y75.750 Z-2.000 F30.000 
G1 X-66.130 Y73.750 Z-2.000 F60.000 
G1 X-96.630 Y73.750 Z-2.000 F60.000 
G1 X-96.630 Y75.750 Z-2.000 F60.000 
G1 X-66.130 Y75.750 Z-2.000 F60.000 
G1 X-66.130 Y75.750 Z-4.000 F30.000 
G1 X-66.130 Y73.750 Z-4.000 F60.000 
G1 X-96.630 Y73.750 Z-4.000 F60.000 
G1 X-96.630 Y75.750 Z-4.000 F60.000 
G1 X-66.130 Y75.750 Z-4.000 F60.000 
G1 X-66.130 Y75.750 Z-6.000 F30.000 
G1 X-66.130 Y73.750 Z-6.000 F60.000 
G1 X-96.630 Y73.750 Z-6.000 F60.000 
G1 X-96.630 Y75.750 Z-6.000 F60.000 
G1 X-66.130 Y75.750 Z-6.000 F60.000 
G1 X-66.130 Y75.750 Z-8.000 F30.000 
G1 X-66.130 Y73.750 Z-8.000 F60.000 
G1 X-96.630 Y73.750 Z-8.000 F60.000 
G1 X-96.630 Y75.750 Z-8.000 F60.000 
G1 X-66.130 Y75.750 Z-8.000 F60.000 
G1 X-66.130 Y75.750 Z-10.000 F30.000 
G1 X-66.130 Y73.750 Z-10.000 F60.000 
G1 X-96.630 Y73.750 Z-10.000 F60.000 
G1 X-96.630 Y75.750 Z-10.000 F60.000 
G1 X-66.130 Y75.750 Z-10.000 F60.000 
G1 X-66.130 Y75.750 Z-12.000 F30.000 
G1 X-66.130 Y73.750 Z-12.000 F60.000 
G1 X-96.630 Y73.750 Z-12.000 F60.000 
G1 X-96.630 Y75.750 Z-12.000 F60.000 
G1 X-66.130 Y75.750 Z-12.000 F60.000 
G1 X-66.130 Y75.750 Z-14.000 F30.000 
G1 X-66.130 Y73.750 Z-14.000 F60.000 
G1 X-96.630 Y73.750 Z-14.000 F60.000 
G1 X-96.630 Y75.750 Z-14.000 F60.000 
G1 X-66.130 Y75.750 Z-14.000 F60.000 
G1 X-66.130 Y75.750 Z-16.000 F30.000 
G1 X-66.130 Y73.750 Z-16.000 F60.000 
G1 X-96.630 Y73.750 Z-16.000 F60.000 
G1 X-96.630 Y75.750 Z-16.000 F60.000 
G1 X-66.130 Y75.750 Z-16.000 F60.000 
G1 X-66.130 Y75.750 Z-18.000 F30.000 
G1 X-66.130 Y73.750 Z-18.000 F60.000 
G1 X-96.630 Y73.750 Z-18.000 F60.000 
G1 X-96.630 Y75.750 Z-18.000 F60.000 
G1 X-66.130 Y75.750 Z-18.000 F60.000 
G1 X-66.130 Y75.750 Z-19.000 F30.000 
G1 X-66.130 Y73.750 Z-19.000 F60.000 
G1 X-96.630 Y73.750 Z-19.000 F60.000 
G1 X-96.630 Y75.750 Z-19.000 F60.000 
G1 X-66.130 Y75.750 Z-19.000 F60.000 
G0 Z10.000 
G0 Z10.000 
(finish operation: profile-liitin-4mm)
(begin postamble)
M05
G17 G54 G90 G80 G40
M2
