(Exported by FreeCAD)
(Post Processor: script_module)
(Output Time:2025-07-16 11:11:27.991150)
(begin preamble)
G17 G54 G40 G49 G80 G90
G21
(begin operation: Fixture)
(machine units: mm/min)
G54 
(finish operation: Fixture)
(begin operation: TC: 4mm_20mm_endmill)
(machine units: mm/min)
(TC: 4mm_20mm_endmill) 
M5
M6 T3 
G43 H3 
(finish operation: TC: 4mm_20mm_endmill)
(begin operation: nappain-reijat)
(machine units: mm/min)
(nappain-reijat) 
(helix cut operation) 
G0 Z10.000 
G0 Z10.000 
G0 X-54.945 Y-8.000 Z10.000 
G0 X-54.945 Y-8.000 Z0.000 
G0 X-54.845 Y-8.000 
G1 Z0.000 F30.000 
G2 X-55.045 Y-8.000 Z-1.357 I-0.100 J0.000 F60.000 
G2 X-54.845 Y-8.000 Z-2.714 I0.100 J0.000 F60.000 
G2 X-55.045 Y-8.000 Z-4.071 I-0.100 J0.000 F60.000 
G2 X-54.845 Y-8.000 Z-5.429 I0.100 J0.000 F60.000 
G2 X-55.045 Y-8.000 Z-6.786 I-0.100 J0.000 F60.000 
G2 X-54.845 Y-8.000 Z-8.143 I0.100 J0.000 F60.000 
G2 X-55.045 Y-8.000 Z-9.500 I-0.100 J0.000 F60.000 
G2 X-54.845 Y-8.000 Z-10.857 I0.100 J0.000 F60.000 
G2 X-55.045 Y-8.000 Z-12.214 I-0.100 J0.000 F60.000 
G2 X-54.845 Y-8.000 Z-13.571 I0.100 J0.000 F60.000 
G2 X-55.045 Y-8.000 Z-14.929 I-0.100 J0.000 F60.000 
G2 X-54.845 Y-8.000 Z-16.286 I0.100 J0.000 F60.000 
G2 X-55.045 Y-8.000 Z-17.643 I-0.100 J0.000 F60.000 
G2 X-54.845 Y-8.000 Z-19.000 I0.100 J0.000 F60.000 
G2 X-55.045 Y-8.000 Z-19.000 I-0.100 J0.000 F60.000 
G2 X-54.845 Y-8.000 Z-19.000 I0.100 J0.000 F60.000 
G0 X-54.945 Y-8.000 Z-19.000 
G0 Z0.000 
G0 Z10.000 
G0 X-54.945 Y8.000 Z10.000 
G0 X-54.945 Y8.000 Z0.000 
G0 X-54.845 Y8.000 
G1 Z0.000 F30.000 
G2 X-55.045 Y8.000 Z-1.357 I-0.100 J0.000 F60.000 
G2 X-54.845 Y8.000 Z-2.714 I0.100 J0.000 F60.000 
G2 X-55.045 Y8.000 Z-4.071 I-0.100 J0.000 F60.000 
G2 X-54.845 Y8.000 Z-5.429 I0.100 J0.000 F60.000 
G2 X-55.045 Y8.000 Z-6.786 I-0.100 J0.000 F60.000 
G2 X-54.845 Y8.000 Z-8.143 I0.100 J0.000 F60.000 
G2 X-55.045 Y8.000 Z-9.500 I-0.100 J0.000 F60.000 
G2 X-54.845 Y8.000 Z-10.857 I0.100 J0.000 F60.000 
G2 X-55.045 Y8.000 Z-12.214 I-0.100 J0.000 F60.000 
G2 X-54.845 Y8.000 Z-13.571 I0.100 J0.000 F60.000 
G2 X-55.045 Y8.000 Z-14.929 I-0.100 J0.000 F60.000 
G2 X-54.845 Y8.000 Z-16.286 I0.100 J0.000 F60.000 
G2 X-55.045 Y8.000 Z-17.643 I-0.100 J0.000 F60.000 
G2 X-54.845 Y8.000 Z-19.000 I0.100 J0.000 F60.000 
G2 X-55.045 Y8.000 Z-19.000 I-0.100 J0.000 F60.000 
G2 X-54.845 Y8.000 Z-19.000 I0.100 J0.000 F60.000 
G0 X-54.945 Y8.000 Z-19.000 
G0 Z0.000 
G0 Z10.000 
(finish operation: nappain-reijat)
(begin postamble)
M05
G17 G54 G90 G80 G40
M2
