(Exported by FreeCAD)
(Post Processor: script_module)
(Output Time:2025-06-19 12:06:15.330674)
(begin preamble)
G17 G54 G40 G49 G80 G90
G21
(begin operation: Fixture)
(machine units: mm/min)
G54 
(finish operation: Fixture)
(begin operation: TC: Endmill_6mm002)
(machine units: mm/min)
(TC: Endmill_6mm002) 
M5
M6 T2 
G43 H2 
(finish operation: TC: Endmill_6mm002)
(begin operation: naytto)
(machine units: mm/min)
(naytto) 
G0 Z5.000 
G0 X-21.000 Y24.250 
G0 Z3.000 
G1 X-21.000 Y24.250 Z-3.000 F60.000 
G1 X-21.000 Y31.887 Z-3.000 F120.000 
G1 X-28.637 Y24.250 Z-3.000 F120.000 
G1 X-36.274 Y24.250 Z-3.000 F120.000 
G1 X-21.000 Y39.524 Z-3.000 F120.000 
G1 X-21.000 Y47.160 Z-3.000 F120.000 
G1 X-43.910 Y24.250 Z-3.000 F120.000 
G1 X-51.547 Y24.250 Z-3.000 F120.000 
G1 X-21.000 Y54.797 Z-3.000 F120.000 
G1 X-21.000 Y62.434 Z-3.000 F120.000 
G1 X-59.184 Y24.250 Z-3.000 F120.000 
G1 X-66.821 Y24.250 Z-3.000 F120.000 
G1 X-21.000 Y70.071 Z-3.000 F120.000 
G1 X-21.000 Y75.750 Z-3.000 F120.000 
G1 X-22.957 Y75.750 Z-3.000 F120.000 
G1 X-74.457 Y24.250 Z-3.000 F120.000 
G1 X-82.094 Y24.250 Z-3.000 F120.000 
G1 X-30.594 Y75.750 Z-3.000 F120.000 
G1 X-38.231 Y75.750 Z-3.000 F120.000 
G1 X-89.731 Y24.250 Z-3.000 F120.000 
G1 X-97.368 Y24.250 Z-3.000 F120.000 
G1 X-45.868 Y75.750 Z-3.000 F120.000 
G1 X-53.504 Y75.750 Z-3.000 F120.000 
G1 X-103.000 Y26.254 Z-3.000 F120.000 
G1 X-103.000 Y33.891 Z-3.000 F120.000 
G1 X-68.141 Y68.750 Z-3.000 F120.000 
G1 X-75.778 Y68.750 Z-3.000 F120.000 
G1 X-103.000 Y41.528 Z-3.000 F120.000 
G1 X-103.000 Y49.165 Z-3.000 F120.000 
G1 X-83.415 Y68.750 Z-3.000 F120.000 
G1 X-91.051 Y68.750 Z-3.000 F120.000 
G1 X-103.000 Y56.801 Z-3.000 F120.000 
G1 X-103.000 Y64.438 Z-3.000 F120.000 
G1 X-98.684 Y68.754 Z-3.000 F120.000 
G2 X-101.630 Y71.750 Z-3.000 I0.047 J2.993 F120.000 
G1 X-101.630 Y73.445 Z-3.000 F120.000 
G1 X-101.630 Y75.750 Z-3.000 F120.000 
G1 X-103.000 Y75.750 Z-3.000 F120.000 
G1 X-103.000 Y72.075 Z-3.000 F120.000 
G1 X-101.630 Y73.445 Z-3.000 F120.000 
G1 X-101.630 Y73.445 Z-6.000 F60.000 
G1 X-103.000 Y72.075 Z-6.000 F120.000 
G1 X-103.000 Y75.750 Z-6.000 F120.000 
G1 X-101.630 Y75.750 Z-6.000 F120.000 
G1 X-101.630 Y73.445 Z-6.000 F120.000 
G1 X-101.630 Y71.750 Z-6.000 F120.000 
G3 X-98.684 Y68.754 Z-6.000 I2.993 J-0.003 F120.000 
G1 X-103.000 Y64.438 Z-6.000 F120.000 
G1 X-103.000 Y56.801 Z-6.000 F120.000 
G1 X-91.051 Y68.750 Z-6.000 F120.000 
G1 X-83.415 Y68.750 Z-6.000 F120.000 
G1 X-103.000 Y49.165 Z-6.000 F120.000 
G1 X-103.000 Y41.528 Z-6.000 F120.000 
G1 X-75.778 Y68.750 Z-6.000 F120.000 
G1 X-68.141 Y68.750 Z-6.000 F120.000 
G1 X-103.000 Y33.891 Z-6.000 F120.000 
G1 X-103.000 Y26.254 Z-6.000 F120.000 
G1 X-53.504 Y75.750 Z-6.000 F120.000 
G1 X-45.868 Y75.750 Z-6.000 F120.000 
G1 X-97.368 Y24.250 Z-6.000 F120.000 
G1 X-89.731 Y24.250 Z-6.000 F120.000 
G1 X-38.231 Y75.750 Z-6.000 F120.000 
G1 X-30.594 Y75.750 Z-6.000 F120.000 
G1 X-82.094 Y24.250 Z-6.000 F120.000 
G1 X-74.457 Y24.250 Z-6.000 F120.000 
G1 X-22.957 Y75.750 Z-6.000 F120.000 
G1 X-21.000 Y75.750 Z-6.000 F120.000 
G1 X-21.000 Y70.071 Z-6.000 F120.000 
G1 X-66.821 Y24.250 Z-6.000 F120.000 
G1 X-59.184 Y24.250 Z-6.000 F120.000 
G1 X-21.000 Y62.434 Z-6.000 F120.000 
G1 X-21.000 Y54.797 Z-6.000 F120.000 
G1 X-51.547 Y24.250 Z-6.000 F120.000 
G1 X-43.910 Y24.250 Z-6.000 F120.000 
G1 X-21.000 Y47.160 Z-6.000 F120.000 
G1 X-21.000 Y39.524 Z-6.000 F120.000 
G1 X-36.274 Y24.250 Z-6.000 F120.000 
G1 X-28.637 Y24.250 Z-6.000 F120.000 
G1 X-21.000 Y31.887 Z-6.000 F120.000 
G1 X-21.000 Y24.250 Z-6.000 F120.000 
G1 X-21.000 Y24.250 Z-6.500 F60.000 
G1 X-21.000 Y31.887 Z-6.500 F120.000 
G1 X-28.637 Y24.250 Z-6.500 F120.000 
G1 X-36.274 Y24.250 Z-6.500 F120.000 
G1 X-21.000 Y39.524 Z-6.500 F120.000 
G1 X-21.000 Y47.160 Z-6.500 F120.000 
G1 X-43.910 Y24.250 Z-6.500 F120.000 
G1 X-51.547 Y24.250 Z-6.500 F120.000 
G1 X-21.000 Y54.797 Z-6.500 F120.000 
G1 X-21.000 Y62.434 Z-6.500 F120.000 
G1 X-59.184 Y24.250 Z-6.500 F120.000 
G1 X-66.821 Y24.250 Z-6.500 F120.000 
G1 X-21.000 Y70.071 Z-6.500 F120.000 
G1 X-21.000 Y75.750 Z-6.500 F120.000 
G1 X-22.957 Y75.750 Z-6.500 F120.000 
G1 X-74.457 Y24.250 Z-6.500 F120.000 
G1 X-82.094 Y24.250 Z-6.500 F120.000 
G1 X-30.594 Y75.750 Z-6.500 F120.000 
G1 X-38.231 Y75.750 Z-6.500 F120.000 
G1 X-89.731 Y24.250 Z-6.500 F120.000 
G1 X-97.368 Y24.250 Z-6.500 F120.000 
G1 X-45.868 Y75.750 Z-6.500 F120.000 
G1 X-53.504 Y75.750 Z-6.500 F120.000 
G1 X-103.000 Y26.254 Z-6.500 F120.000 
G1 X-103.000 Y33.891 Z-6.500 F120.000 
G1 X-68.141 Y68.750 Z-6.500 F120.000 
G1 X-75.778 Y68.750 Z-6.500 F120.000 
G1 X-103.000 Y41.528 Z-6.500 F120.000 
G1 X-103.000 Y49.165 Z-6.500 F120.000 
G1 X-83.415 Y68.750 Z-6.500 F120.000 
G1 X-91.051 Y68.750 Z-6.500 F120.000 
G1 X-103.000 Y56.801 Z-6.500 F120.000 
G1 X-103.000 Y64.438 Z-6.500 F120.000 
G1 X-98.684 Y68.754 Z-6.500 F120.000 
G2 X-101.630 Y71.750 Z-6.500 I0.047 J2.993 F120.000 
G1 X-101.630 Y73.445 Z-6.500 F120.000 
G1 X-101.630 Y75.750 Z-6.500 F120.000 
G1 X-103.000 Y75.750 Z-6.500 F120.000 
G1 X-103.000 Y72.075 Z-6.500 F120.000 
G1 X-101.630 Y73.445 Z-6.500 F120.000 
G1 X-101.630 Y73.445 Z-7.500 F60.000 
G1 X-103.000 Y72.075 Z-7.500 F120.000 
G1 X-103.000 Y75.750 Z-7.500 F120.000 
G1 X-101.630 Y75.750 Z-7.500 F120.000 
G1 X-101.630 Y73.445 Z-7.500 F120.000 
G1 X-101.630 Y71.750 Z-7.500 F120.000 
G3 X-98.684 Y68.754 Z-7.500 I2.993 J-0.003 F120.000 
G1 X-103.000 Y64.438 Z-7.500 F120.000 
G1 X-103.000 Y56.801 Z-7.500 F120.000 
G1 X-91.051 Y68.750 Z-7.500 F120.000 
G1 X-83.415 Y68.750 Z-7.500 F120.000 
G1 X-103.000 Y49.165 Z-7.500 F120.000 
G1 X-103.000 Y41.528 Z-7.500 F120.000 
G1 X-75.778 Y68.750 Z-7.500 F120.000 
G1 X-68.141 Y68.750 Z-7.500 F120.000 
G1 X-103.000 Y33.891 Z-7.500 F120.000 
G1 X-103.000 Y26.254 Z-7.500 F120.000 
G1 X-53.504 Y75.750 Z-7.500 F120.000 
G1 X-45.868 Y75.750 Z-7.500 F120.000 
G1 X-97.368 Y24.250 Z-7.500 F120.000 
G1 X-89.731 Y24.250 Z-7.500 F120.000 
G1 X-38.231 Y75.750 Z-7.500 F120.000 
G1 X-30.594 Y75.750 Z-7.500 F120.000 
G1 X-82.094 Y24.250 Z-7.500 F120.000 
G1 X-74.457 Y24.250 Z-7.500 F120.000 
G1 X-22.957 Y75.750 Z-7.500 F120.000 
G1 X-21.000 Y75.750 Z-7.500 F120.000 
G1 X-21.000 Y70.071 Z-7.500 F120.000 
G1 X-66.821 Y24.250 Z-7.500 F120.000 
G1 X-59.184 Y24.250 Z-7.500 F120.000 
G1 X-21.000 Y62.434 Z-7.500 F120.000 
G1 X-21.000 Y54.797 Z-7.500 F120.000 
G1 X-51.547 Y24.250 Z-7.500 F120.000 
G1 X-43.910 Y24.250 Z-7.500 F120.000 
G1 X-21.000 Y47.160 Z-7.500 F120.000 
G1 X-21.000 Y39.524 Z-7.500 F120.000 
G1 X-36.274 Y24.250 Z-7.500 F120.000 
G1 X-28.637 Y24.250 Z-7.500 F120.000 
G1 X-21.000 Y31.887 Z-7.500 F120.000 
G1 X-21.000 Y24.250 Z-7.500 F120.000 
G0 Z5.000 
G0 Z5.000 
(finish operation: naytto)
(begin operation: naytto-reunat)
(machine units: mm/min)
(naytto-reunat) 
(Compensated Tool Path. Diameter: 6.0) 
G0 Z5.000 
G0 X-21.000 Y75.750 
G0 Z3.000 
G1 X-21.000 Y75.750 Z-3.000 F60.000 
G1 X-21.000 Y24.250 Z-3.000 F120.000 
G1 X-103.000 Y24.250 Z-3.000 F120.000 
G1 X-103.000 Y75.750 Z-3.000 F120.000 
G1 X-21.000 Y75.750 Z-3.000 F120.000 
G1 X-21.000 Y75.750 Z-6.000 F60.000 
G1 X-21.000 Y24.250 Z-6.000 F120.000 
G1 X-103.000 Y24.250 Z-6.000 F120.000 
G1 X-103.000 Y75.750 Z-6.000 F120.000 
G1 X-21.000 Y75.750 Z-6.000 F120.000 
G1 X-21.000 Y75.750 Z-7.500 F60.000 
G1 X-21.000 Y24.250 Z-7.500 F120.000 
G1 X-103.000 Y24.250 Z-7.500 F120.000 
G1 X-103.000 Y75.750 Z-7.500 F120.000 
G1 X-21.000 Y75.750 Z-7.500 F120.000 
G0 Z5.000 
G0 Z5.000 
(finish operation: naytto-reunat)
(begin postamble)
M05
G17 G54 G90 G80 G40
M2
