(Exported by FreeCAD)
(Post Processor: script_module)
(Output Time:2025-07-16 11:15:15.571085)
(begin preamble)
G17 G54 G40 G49 G80 G90
G21
(begin operation: Fixture)
(machine units: mm/min)
G54 
(finish operation: Fixture)
(begin operation: TC: Endmill_6mm002)
(machine units: mm/min)
(TC: Endmill_6mm002) 
M5
M6 T2 
G43 H2 
(finish operation: TC: Endmill_6mm002)
(begin operation: naytto)
(machine units: mm/min)
(naytto) 
G0 Z5.000 
G0 X52.000 Y-25.750 
G0 Z3.000 
G1 X52.000 Y-25.750 Z-3.500 F60.000 
G1 X52.000 Y-18.113 Z-3.500 F120.000 
G1 X44.363 Y-25.750 Z-3.500 F120.000 
G1 X36.726 Y-25.750 Z-3.500 F120.000 
G1 X52.000 Y-10.476 Z-3.500 F120.000 
G1 X52.000 Y-2.840 Z-3.500 F120.000 
G1 X29.090 Y-25.750 Z-3.500 F120.000 
G1 X21.453 Y-25.750 Z-3.500 F120.000 
G1 X52.000 Y4.797 Z-3.500 F120.000 
G1 X52.000 Y12.434 Z-3.500 F120.000 
G1 X13.816 Y-25.750 Z-3.500 F120.000 
G1 X6.179 Y-25.750 Z-3.500 F120.000 
G1 X52.000 Y20.071 Z-3.500 F120.000 
G1 X52.000 Y25.750 Z-3.500 F120.000 
G1 X50.043 Y25.750 Z-3.500 F120.000 
G1 X-1.457 Y-25.750 Z-3.500 F120.000 
G1 X-9.094 Y-25.750 Z-3.500 F120.000 
G1 X42.406 Y25.750 Z-3.500 F120.000 
G1 X34.769 Y25.750 Z-3.500 F120.000 
G1 X-16.731 Y-25.750 Z-3.500 F120.000 
G1 X-24.368 Y-25.750 Z-3.500 F120.000 
G1 X27.132 Y25.750 Z-3.500 F120.000 
G1 X19.496 Y25.750 Z-3.500 F120.000 
G1 X-30.000 Y-23.746 Z-3.500 F120.000 
G1 X-30.000 Y-16.109 Z-3.500 F120.000 
G1 X4.859 Y18.750 Z-3.500 F120.000 
G1 X-2.778 Y18.750 Z-3.500 F120.000 
G1 X-30.000 Y-8.472 Z-3.500 F120.000 
G1 X-30.000 Y-0.835 Z-3.500 F120.000 
G1 X-10.415 Y18.750 Z-3.500 F120.000 
G1 X-18.051 Y18.750 Z-3.500 F120.000 
G1 X-30.000 Y6.801 Z-3.500 F120.000 
G1 X-30.000 Y14.438 Z-3.500 F120.000 
G1 X-25.684 Y18.754 Z-3.500 F120.000 
G2 X-28.630 Y21.750 Z-3.500 I0.047 J2.993 F120.000 
G1 X-28.630 Y23.445 Z-3.500 F120.000 
G1 X-28.630 Y25.750 Z-3.500 F120.000 
G1 X-30.000 Y25.750 Z-3.500 F120.000 
G1 X-30.000 Y22.075 Z-3.500 F120.000 
G1 X-28.630 Y23.445 Z-3.500 F120.000 
G1 X-28.630 Y23.445 Z-6.500 F60.000 
G1 X-30.000 Y22.075 Z-6.500 F120.000 
G1 X-30.000 Y25.750 Z-6.500 F120.000 
G1 X-28.630 Y25.750 Z-6.500 F120.000 
G1 X-28.630 Y23.445 Z-6.500 F120.000 
G1 X-28.630 Y21.750 Z-6.500 F120.000 
G3 X-25.684 Y18.754 Z-6.500 I2.993 J-0.003 F120.000 
G1 X-30.000 Y14.438 Z-6.500 F120.000 
G1 X-30.000 Y6.801 Z-6.500 F120.000 
G1 X-18.051 Y18.750 Z-6.500 F120.000 
G1 X-10.415 Y18.750 Z-6.500 F120.000 
G1 X-30.000 Y-0.835 Z-6.500 F120.000 
G1 X-30.000 Y-8.472 Z-6.500 F120.000 
G1 X-2.778 Y18.750 Z-6.500 F120.000 
G1 X4.859 Y18.750 Z-6.500 F120.000 
G1 X-30.000 Y-16.109 Z-6.500 F120.000 
G1 X-30.000 Y-23.746 Z-6.500 F120.000 
G1 X19.496 Y25.750 Z-6.500 F120.000 
G1 X27.132 Y25.750 Z-6.500 F120.000 
G1 X-24.368 Y-25.750 Z-6.500 F120.000 
G1 X-16.731 Y-25.750 Z-6.500 F120.000 
G1 X34.769 Y25.750 Z-6.500 F120.000 
G1 X42.406 Y25.750 Z-6.500 F120.000 
G1 X-9.094 Y-25.750 Z-6.500 F120.000 
G1 X-1.457 Y-25.750 Z-6.500 F120.000 
G1 X50.043 Y25.750 Z-6.500 F120.000 
G1 X52.000 Y25.750 Z-6.500 F120.000 
G1 X52.000 Y20.071 Z-6.500 F120.000 
G1 X6.179 Y-25.750 Z-6.500 F120.000 
G1 X13.816 Y-25.750 Z-6.500 F120.000 
G1 X52.000 Y12.434 Z-6.500 F120.000 
G1 X52.000 Y4.797 Z-6.500 F120.000 
G1 X21.453 Y-25.750 Z-6.500 F120.000 
G1 X29.090 Y-25.750 Z-6.500 F120.000 
G1 X52.000 Y-2.840 Z-6.500 F120.000 
G1 X52.000 Y-10.476 Z-6.500 F120.000 
G1 X36.726 Y-25.750 Z-6.500 F120.000 
G1 X44.363 Y-25.750 Z-6.500 F120.000 
G1 X52.000 Y-18.113 Z-6.500 F120.000 
G1 X52.000 Y-25.750 Z-6.500 F120.000 
G1 X52.000 Y-25.750 Z-7.500 F60.000 
G1 X52.000 Y-18.113 Z-7.500 F120.000 
G1 X44.363 Y-25.750 Z-7.500 F120.000 
G1 X36.726 Y-25.750 Z-7.500 F120.000 
G1 X52.000 Y-10.476 Z-7.500 F120.000 
G1 X52.000 Y-2.840 Z-7.500 F120.000 
G1 X29.090 Y-25.750 Z-7.500 F120.000 
G1 X21.453 Y-25.750 Z-7.500 F120.000 
G1 X52.000 Y4.797 Z-7.500 F120.000 
G1 X52.000 Y12.434 Z-7.500 F120.000 
G1 X13.816 Y-25.750 Z-7.500 F120.000 
G1 X6.179 Y-25.750 Z-7.500 F120.000 
G1 X52.000 Y20.071 Z-7.500 F120.000 
G1 X52.000 Y25.750 Z-7.500 F120.000 
G1 X50.043 Y25.750 Z-7.500 F120.000 
G1 X-1.457 Y-25.750 Z-7.500 F120.000 
G1 X-9.094 Y-25.750 Z-7.500 F120.000 
G1 X42.406 Y25.750 Z-7.500 F120.000 
G1 X34.769 Y25.750 Z-7.500 F120.000 
G1 X-16.731 Y-25.750 Z-7.500 F120.000 
G1 X-24.368 Y-25.750 Z-7.500 F120.000 
G1 X27.132 Y25.750 Z-7.500 F120.000 
G1 X19.496 Y25.750 Z-7.500 F120.000 
G1 X-30.000 Y-23.746 Z-7.500 F120.000 
G1 X-30.000 Y-16.109 Z-7.500 F120.000 
G1 X4.859 Y18.750 Z-7.500 F120.000 
G1 X-2.778 Y18.750 Z-7.500 F120.000 
G1 X-30.000 Y-8.472 Z-7.500 F120.000 
G1 X-30.000 Y-0.835 Z-7.500 F120.000 
G1 X-10.415 Y18.750 Z-7.500 F120.000 
G1 X-18.051 Y18.750 Z-7.500 F120.000 
G1 X-30.000 Y6.801 Z-7.500 F120.000 
G1 X-30.000 Y14.438 Z-7.500 F120.000 
G1 X-25.684 Y18.754 Z-7.500 F120.000 
G2 X-28.630 Y21.750 Z-7.500 I0.047 J2.993 F120.000 
G1 X-28.630 Y23.445 Z-7.500 F120.000 
G1 X-28.630 Y25.750 Z-7.500 F120.000 
G1 X-30.000 Y25.750 Z-7.500 F120.000 
G1 X-30.000 Y22.075 Z-7.500 F120.000 
G1 X-28.630 Y23.445 Z-7.500 F120.000 
G0 Z5.000 
G0 Z5.000 
(finish operation: naytto)
(begin operation: naytto-reunat)
(machine units: mm/min)
(naytto-reunat) 
(Compensated Tool Path. Diameter: 6.0) 
G0 Z5.000 
G0 X52.000 Y25.750 
G0 Z3.000 
G1 X52.000 Y25.750 Z-3.000 F60.000 
G1 X52.000 Y-25.750 Z-3.000 F120.000 
G1 X-30.000 Y-25.750 Z-3.000 F120.000 
G1 X-30.000 Y25.750 Z-3.000 F120.000 
G1 X52.000 Y25.750 Z-3.000 F120.000 
G1 X52.000 Y25.750 Z-6.000 F60.000 
G1 X52.000 Y-25.750 Z-6.000 F120.000 
G1 X-30.000 Y-25.750 Z-6.000 F120.000 
G1 X-30.000 Y25.750 Z-6.000 F120.000 
G1 X52.000 Y25.750 Z-6.000 F120.000 
G1 X52.000 Y25.750 Z-7.500 F60.000 
G1 X52.000 Y-25.750 Z-7.500 F120.000 
G1 X-30.000 Y-25.750 Z-7.500 F120.000 
G1 X-30.000 Y25.750 Z-7.500 F120.000 
G1 X52.000 Y25.750 Z-7.500 F120.000 
G0 Z5.000 
G0 Z5.000 
(finish operation: naytto-reunat)
(begin postamble)
M05
G17 G54 G90 G80 G40
M2
