(Exported by FreeCAD)
(Post Processor: script_module)
(Output Time:2025-07-16 11:02:53.777995)
(begin preamble)
G17 G54 G40 G49 G80 G90
G21
(begin operation: Fixture)
(machine units: mm/min)
G54 
(finish operation: Fixture)
(begin operation: TC: 4mm_20mm_endmill)
(machine units: mm/min)
(TC: 4mm_20mm_endmill) 
M5
M6 T3 
G43 H3 
(finish operation: TC: 4mm_20mm_endmill)
(begin operation: pocket-liitin-4mm)
(machine units: mm/min)
(pocket-liitin-4mm) 
G0 Z30.000 
G0 X6.870 Y23.750 Z10.000 
G0 Z30.000 
G1 X6.870 Y23.750 Z-3.000 F30.000 
G1 X6.870 Y25.750 Z-3.000 F60.000 
G1 X4.910 Y25.750 Z-3.000 F60.000 
G1 X2.910 Y23.750 Z-3.000 F60.000 
G1 X-1.050 Y23.750 Z-3.000 F60.000 
G1 X0.950 Y25.750 Z-3.000 F60.000 
G1 X-3.009 Y25.750 Z-3.000 F60.000 
G1 X-5.009 Y23.750 Z-3.000 F60.000 
G1 X-8.969 Y23.750 Z-3.000 F60.000 
G1 X-6.969 Y25.750 Z-3.000 F60.000 
G1 X-10.929 Y25.750 Z-3.000 F60.000 
G1 X-12.929 Y23.750 Z-3.000 F60.000 
G1 X-16.889 Y23.750 Z-3.000 F60.000 
G1 X-14.889 Y25.750 Z-3.000 F60.000 
G1 X-18.849 Y25.750 Z-3.000 F60.000 
G1 X-20.849 Y23.750 Z-3.000 F60.000 
G1 X-23.630 Y23.750 Z-3.000 F60.000 
G1 X-23.630 Y24.928 Z-3.000 F60.000 
G1 X-22.808 Y25.750 Z-3.000 F60.000 
G1 X-23.630 Y25.750 Z-3.000 F60.000 
G1 X-23.630 Y24.928 Z-3.000 F60.000 
G1 X-23.630 Y24.928 Z-6.000 F30.000 
G1 X-23.630 Y25.750 Z-6.000 F60.000 
G1 X-22.808 Y25.750 Z-6.000 F60.000 
G1 X-23.630 Y24.928 Z-6.000 F60.000 
G1 X-23.630 Y23.750 Z-6.000 F60.000 
G1 X-20.849 Y23.750 Z-6.000 F60.000 
G1 X-18.849 Y25.750 Z-6.000 F60.000 
G1 X-14.889 Y25.750 Z-6.000 F60.000 
G1 X-16.889 Y23.750 Z-6.000 F60.000 
G1 X-12.929 Y23.750 Z-6.000 F60.000 
G1 X-10.929 Y25.750 Z-6.000 F60.000 
G1 X-6.969 Y25.750 Z-6.000 F60.000 
G1 X-8.969 Y23.750 Z-6.000 F60.000 
G1 X-5.009 Y23.750 Z-6.000 F60.000 
G1 X-3.009 Y25.750 Z-6.000 F60.000 
G1 X0.950 Y25.750 Z-6.000 F60.000 
G1 X-1.050 Y23.750 Z-6.000 F60.000 
G1 X2.910 Y23.750 Z-6.000 F60.000 
G1 X4.910 Y25.750 Z-6.000 F60.000 
G1 X6.870 Y25.750 Z-6.000 F60.000 
G1 X6.870 Y23.750 Z-6.000 F60.000 
G1 X6.870 Y23.750 Z-9.000 F30.000 
G1 X6.870 Y25.750 Z-9.000 F60.000 
G1 X4.910 Y25.750 Z-9.000 F60.000 
G1 X2.910 Y23.750 Z-9.000 F60.000 
G1 X-1.050 Y23.750 Z-9.000 F60.000 
G1 X0.950 Y25.750 Z-9.000 F60.000 
G1 X-3.009 Y25.750 Z-9.000 F60.000 
G1 X-5.009 Y23.750 Z-9.000 F60.000 
G1 X-8.969 Y23.750 Z-9.000 F60.000 
G1 X-6.969 Y25.750 Z-9.000 F60.000 
G1 X-10.929 Y25.750 Z-9.000 F60.000 
G1 X-12.929 Y23.750 Z-9.000 F60.000 
G1 X-16.889 Y23.750 Z-9.000 F60.000 
G1 X-14.889 Y25.750 Z-9.000 F60.000 
G1 X-18.849 Y25.750 Z-9.000 F60.000 
G1 X-20.849 Y23.750 Z-9.000 F60.000 
G1 X-23.630 Y23.750 Z-9.000 F60.000 
G1 X-23.630 Y24.928 Z-9.000 F60.000 
G1 X-22.808 Y25.750 Z-9.000 F60.000 
G1 X-23.630 Y25.750 Z-9.000 F60.000 
G1 X-23.630 Y24.928 Z-9.000 F60.000 
G1 X-23.630 Y24.928 Z-12.000 F30.000 
G1 X-23.630 Y25.750 Z-12.000 F60.000 
G1 X-22.808 Y25.750 Z-12.000 F60.000 
G1 X-23.630 Y24.928 Z-12.000 F60.000 
G1 X-23.630 Y23.750 Z-12.000 F60.000 
G1 X-20.849 Y23.750 Z-12.000 F60.000 
G1 X-18.849 Y25.750 Z-12.000 F60.000 
G1 X-14.889 Y25.750 Z-12.000 F60.000 
G1 X-16.889 Y23.750 Z-12.000 F60.000 
G1 X-12.929 Y23.750 Z-12.000 F60.000 
G1 X-10.929 Y25.750 Z-12.000 F60.000 
G1 X-6.969 Y25.750 Z-12.000 F60.000 
G1 X-8.969 Y23.750 Z-12.000 F60.000 
G1 X-5.009 Y23.750 Z-12.000 F60.000 
G1 X-3.009 Y25.750 Z-12.000 F60.000 
G1 X0.950 Y25.750 Z-12.000 F60.000 
G1 X-1.050 Y23.750 Z-12.000 F60.000 
G1 X2.910 Y23.750 Z-12.000 F60.000 
G1 X4.910 Y25.750 Z-12.000 F60.000 
G1 X6.870 Y25.750 Z-12.000 F60.000 
G1 X6.870 Y23.750 Z-12.000 F60.000 
G1 X6.870 Y23.750 Z-15.000 F30.000 
G1 X6.870 Y25.750 Z-15.000 F60.000 
G1 X4.910 Y25.750 Z-15.000 F60.000 
G1 X2.910 Y23.750 Z-15.000 F60.000 
G1 X-1.050 Y23.750 Z-15.000 F60.000 
G1 X0.950 Y25.750 Z-15.000 F60.000 
G1 X-3.009 Y25.750 Z-15.000 F60.000 
G1 X-5.009 Y23.750 Z-15.000 F60.000 
G1 X-8.969 Y23.750 Z-15.000 F60.000 
G1 X-6.969 Y25.750 Z-15.000 F60.000 
G1 X-10.929 Y25.750 Z-15.000 F60.000 
G1 X-12.929 Y23.750 Z-15.000 F60.000 
G1 X-16.889 Y23.750 Z-15.000 F60.000 
G1 X-14.889 Y25.750 Z-15.000 F60.000 
G1 X-18.849 Y25.750 Z-15.000 F60.000 
G1 X-20.849 Y23.750 Z-15.000 F60.000 
G1 X-23.630 Y23.750 Z-15.000 F60.000 
G1 X-23.630 Y24.928 Z-15.000 F60.000 
G1 X-22.808 Y25.750 Z-15.000 F60.000 
G1 X-23.630 Y25.750 Z-15.000 F60.000 
G1 X-23.630 Y24.928 Z-15.000 F60.000 
G1 X-23.630 Y24.928 Z-18.000 F30.000 
G1 X-23.630 Y25.750 Z-18.000 F60.000 
G1 X-22.808 Y25.750 Z-18.000 F60.000 
G1 X-23.630 Y24.928 Z-18.000 F60.000 
G1 X-23.630 Y23.750 Z-18.000 F60.000 
G1 X-20.849 Y23.750 Z-18.000 F60.000 
G1 X-18.849 Y25.750 Z-18.000 F60.000 
G1 X-14.889 Y25.750 Z-18.000 F60.000 
G1 X-16.889 Y23.750 Z-18.000 F60.000 
G1 X-12.929 Y23.750 Z-18.000 F60.000 
G1 X-10.929 Y25.750 Z-18.000 F60.000 
G1 X-6.969 Y25.750 Z-18.000 F60.000 
G1 X-8.969 Y23.750 Z-18.000 F60.000 
G1 X-5.009 Y23.750 Z-18.000 F60.000 
G1 X-3.009 Y25.750 Z-18.000 F60.000 
G1 X0.950 Y25.750 Z-18.000 F60.000 
G1 X-1.050 Y23.750 Z-18.000 F60.000 
G1 X2.910 Y23.750 Z-18.000 F60.000 
G1 X4.910 Y25.750 Z-18.000 F60.000 
G1 X6.870 Y25.750 Z-18.000 F60.000 
G1 X6.870 Y23.750 Z-18.000 F60.000 
G1 X6.870 Y23.750 Z-19.000 F30.000 
G1 X6.870 Y25.750 Z-19.000 F60.000 
G1 X4.910 Y25.750 Z-19.000 F60.000 
G1 X2.910 Y23.750 Z-19.000 F60.000 
G1 X-1.050 Y23.750 Z-19.000 F60.000 
G1 X0.950 Y25.750 Z-19.000 F60.000 
G1 X-3.009 Y25.750 Z-19.000 F60.000 
G1 X-5.009 Y23.750 Z-19.000 F60.000 
G1 X-8.969 Y23.750 Z-19.000 F60.000 
G1 X-6.969 Y25.750 Z-19.000 F60.000 
G1 X-10.929 Y25.750 Z-19.000 F60.000 
G1 X-12.929 Y23.750 Z-19.000 F60.000 
G1 X-16.889 Y23.750 Z-19.000 F60.000 
G1 X-14.889 Y25.750 Z-19.000 F60.000 
G1 X-18.849 Y25.750 Z-19.000 F60.000 
G1 X-20.849 Y23.750 Z-19.000 F60.000 
G1 X-23.630 Y23.750 Z-19.000 F60.000 
G1 X-23.630 Y24.928 Z-19.000 F60.000 
G1 X-22.808 Y25.750 Z-19.000 F60.000 
G1 X-23.630 Y25.750 Z-19.000 F60.000 
G1 X-23.630 Y24.928 Z-19.000 F60.000 
G0 Z10.000 
G0 Z10.000 
(finish operation: pocket-liitin-4mm)
(begin operation: profile-liitin-4mm)
(machine units: mm/min)
(profile-liitin-4mm) 
(Compensated Tool Path. Diameter: 4.0) 
G0 Z30.000 
G0 X6.870 Y25.750 Z10.000 
G0 Z30.000 
G1 X6.870 Y25.750 Z-3.500 F30.000 
G1 X6.870 Y23.750 Z-3.500 F60.000 
G1 X-23.630 Y23.750 Z-3.500 F60.000 
G1 X-23.630 Y25.750 Z-3.500 F60.000 
G1 X6.870 Y25.750 Z-3.500 F60.000 
G1 X6.870 Y25.750 Z-7.000 F30.000 
G1 X6.870 Y23.750 Z-7.000 F60.000 
G1 X-23.630 Y23.750 Z-7.000 F60.000 
G1 X-23.630 Y25.750 Z-7.000 F60.000 
G1 X6.870 Y25.750 Z-7.000 F60.000 
G1 X6.870 Y25.750 Z-10.500 F30.000 
G1 X6.870 Y23.750 Z-10.500 F60.000 
G1 X-23.630 Y23.750 Z-10.500 F60.000 
G1 X-23.630 Y25.750 Z-10.500 F60.000 
G1 X6.870 Y25.750 Z-10.500 F60.000 
G1 X6.870 Y25.750 Z-14.000 F30.000 
G1 X6.870 Y23.750 Z-14.000 F60.000 
G1 X-23.630 Y23.750 Z-14.000 F60.000 
G1 X-23.630 Y25.750 Z-14.000 F60.000 
G1 X6.870 Y25.750 Z-14.000 F60.000 
G1 X6.870 Y25.750 Z-17.500 F30.000 
G1 X6.870 Y23.750 Z-17.500 F60.000 
G1 X-23.630 Y23.750 Z-17.500 F60.000 
G1 X-23.630 Y25.750 Z-17.500 F60.000 
G1 X6.870 Y25.750 Z-17.500 F60.000 
G1 X6.870 Y25.750 Z-19.000 F30.000 
G1 X6.870 Y23.750 Z-19.000 F60.000 
G1 X-23.630 Y23.750 Z-19.000 F60.000 
G1 X-23.630 Y25.750 Z-19.000 F60.000 
G1 X6.870 Y25.750 Z-19.000 F60.000 
G0 Z10.000 
G0 Z10.000 
(finish operation: profile-liitin-4mm)
(begin postamble)
M05
G17 G54 G90 G80 G40
M2
