(Exported by FreeCAD)
(Post Processor: script_module)
(Output Time:2025-07-15 10:48:53.506347)
(begin preamble)
G17 G54 G40 G49 G80 G90
G21
(begin operation: Fixture)
(machine units: mm/min)
G54 
(finish operation: Fixture)
(begin operation: TC: 4mm_20mm_endmill)
(machine units: mm/min)
(TC: 4mm_20mm_endmill) 
M5
M6 T3 
G43 H3 
(finish operation: TC: 4mm_20mm_endmill)
(begin operation: pocket-liitin-4mm)
(machine units: mm/min)
(pocket-liitin-4mm) 
G0 Z5.000 
G0 X-66.130 Y73.750 
G0 Z3.000 
G1 X-66.130 Y73.750 Z-3.000 F30.000 
G1 X-66.130 Y75.750 Z-3.000 F60.000 
G1 X-68.090 Y75.750 Z-3.000 F60.000 
G1 X-70.090 Y73.750 Z-3.000 F60.000 
G1 X-74.050 Y73.750 Z-3.000 F60.000 
G1 X-72.050 Y75.750 Z-3.000 F60.000 
G1 X-76.009 Y75.750 Z-3.000 F60.000 
G1 X-78.009 Y73.750 Z-3.000 F60.000 
G1 X-81.969 Y73.750 Z-3.000 F60.000 
G1 X-79.969 Y75.750 Z-3.000 F60.000 
G1 X-83.929 Y75.750 Z-3.000 F60.000 
G1 X-85.929 Y73.750 Z-3.000 F60.000 
G1 X-89.889 Y73.750 Z-3.000 F60.000 
G1 X-87.889 Y75.750 Z-3.000 F60.000 
G1 X-91.849 Y75.750 Z-3.000 F60.000 
G1 X-93.849 Y73.750 Z-3.000 F60.000 
G1 X-96.630 Y73.750 Z-3.000 F60.000 
G1 X-96.630 Y74.928 Z-3.000 F60.000 
G1 X-95.808 Y75.750 Z-3.000 F60.000 
G1 X-96.630 Y75.750 Z-3.000 F60.000 
G1 X-96.630 Y74.928 Z-3.000 F60.000 
G1 X-96.630 Y74.928 Z-6.000 F30.000 
G1 X-96.630 Y75.750 Z-6.000 F60.000 
G1 X-95.808 Y75.750 Z-6.000 F60.000 
G1 X-96.630 Y74.928 Z-6.000 F60.000 
G1 X-96.630 Y73.750 Z-6.000 F60.000 
G1 X-93.849 Y73.750 Z-6.000 F60.000 
G1 X-91.849 Y75.750 Z-6.000 F60.000 
G1 X-87.889 Y75.750 Z-6.000 F60.000 
G1 X-89.889 Y73.750 Z-6.000 F60.000 
G1 X-85.929 Y73.750 Z-6.000 F60.000 
G1 X-83.929 Y75.750 Z-6.000 F60.000 
G1 X-79.969 Y75.750 Z-6.000 F60.000 
G1 X-81.969 Y73.750 Z-6.000 F60.000 
G1 X-78.009 Y73.750 Z-6.000 F60.000 
G1 X-76.009 Y75.750 Z-6.000 F60.000 
G1 X-72.050 Y75.750 Z-6.000 F60.000 
G1 X-74.050 Y73.750 Z-6.000 F60.000 
G1 X-70.090 Y73.750 Z-6.000 F60.000 
G1 X-68.090 Y75.750 Z-6.000 F60.000 
G1 X-66.130 Y75.750 Z-6.000 F60.000 
G1 X-66.130 Y73.750 Z-6.000 F60.000 
G1 X-66.130 Y73.750 Z-9.000 F30.000 
G1 X-66.130 Y75.750 Z-9.000 F60.000 
G1 X-68.090 Y75.750 Z-9.000 F60.000 
G1 X-70.090 Y73.750 Z-9.000 F60.000 
G1 X-74.050 Y73.750 Z-9.000 F60.000 
G1 X-72.050 Y75.750 Z-9.000 F60.000 
G1 X-76.009 Y75.750 Z-9.000 F60.000 
G1 X-78.009 Y73.750 Z-9.000 F60.000 
G1 X-81.969 Y73.750 Z-9.000 F60.000 
G1 X-79.969 Y75.750 Z-9.000 F60.000 
G1 X-83.929 Y75.750 Z-9.000 F60.000 
G1 X-85.929 Y73.750 Z-9.000 F60.000 
G1 X-89.889 Y73.750 Z-9.000 F60.000 
G1 X-87.889 Y75.750 Z-9.000 F60.000 
G1 X-91.849 Y75.750 Z-9.000 F60.000 
G1 X-93.849 Y73.750 Z-9.000 F60.000 
G1 X-96.630 Y73.750 Z-9.000 F60.000 
G1 X-96.630 Y74.928 Z-9.000 F60.000 
G1 X-95.808 Y75.750 Z-9.000 F60.000 
G1 X-96.630 Y75.750 Z-9.000 F60.000 
G1 X-96.630 Y74.928 Z-9.000 F60.000 
G1 X-96.630 Y74.928 Z-12.000 F30.000 
G1 X-96.630 Y75.750 Z-12.000 F60.000 
G1 X-95.808 Y75.750 Z-12.000 F60.000 
G1 X-96.630 Y74.928 Z-12.000 F60.000 
G1 X-96.630 Y73.750 Z-12.000 F60.000 
G1 X-93.849 Y73.750 Z-12.000 F60.000 
G1 X-91.849 Y75.750 Z-12.000 F60.000 
G1 X-87.889 Y75.750 Z-12.000 F60.000 
G1 X-89.889 Y73.750 Z-12.000 F60.000 
G1 X-85.929 Y73.750 Z-12.000 F60.000 
G1 X-83.929 Y75.750 Z-12.000 F60.000 
G1 X-79.969 Y75.750 Z-12.000 F60.000 
G1 X-81.969 Y73.750 Z-12.000 F60.000 
G1 X-78.009 Y73.750 Z-12.000 F60.000 
G1 X-76.009 Y75.750 Z-12.000 F60.000 
G1 X-72.050 Y75.750 Z-12.000 F60.000 
G1 X-74.050 Y73.750 Z-12.000 F60.000 
G1 X-70.090 Y73.750 Z-12.000 F60.000 
G1 X-68.090 Y75.750 Z-12.000 F60.000 
G1 X-66.130 Y75.750 Z-12.000 F60.000 
G1 X-66.130 Y73.750 Z-12.000 F60.000 
G1 X-66.130 Y73.750 Z-15.000 F30.000 
G1 X-66.130 Y75.750 Z-15.000 F60.000 
G1 X-68.090 Y75.750 Z-15.000 F60.000 
G1 X-70.090 Y73.750 Z-15.000 F60.000 
G1 X-74.050 Y73.750 Z-15.000 F60.000 
G1 X-72.050 Y75.750 Z-15.000 F60.000 
G1 X-76.009 Y75.750 Z-15.000 F60.000 
G1 X-78.009 Y73.750 Z-15.000 F60.000 
G1 X-81.969 Y73.750 Z-15.000 F60.000 
G1 X-79.969 Y75.750 Z-15.000 F60.000 
G1 X-83.929 Y75.750 Z-15.000 F60.000 
G1 X-85.929 Y73.750 Z-15.000 F60.000 
G1 X-89.889 Y73.750 Z-15.000 F60.000 
G1 X-87.889 Y75.750 Z-15.000 F60.000 
G1 X-91.849 Y75.750 Z-15.000 F60.000 
G1 X-93.849 Y73.750 Z-15.000 F60.000 
G1 X-96.630 Y73.750 Z-15.000 F60.000 
G1 X-96.630 Y74.928 Z-15.000 F60.000 
G1 X-95.808 Y75.750 Z-15.000 F60.000 
G1 X-96.630 Y75.750 Z-15.000 F60.000 
G1 X-96.630 Y74.928 Z-15.000 F60.000 
G1 X-96.630 Y74.928 Z-18.000 F30.000 
G1 X-96.630 Y75.750 Z-18.000 F60.000 
G1 X-95.808 Y75.750 Z-18.000 F60.000 
G1 X-96.630 Y74.928 Z-18.000 F60.000 
G1 X-96.630 Y73.750 Z-18.000 F60.000 
G1 X-93.849 Y73.750 Z-18.000 F60.000 
G1 X-91.849 Y75.750 Z-18.000 F60.000 
G1 X-87.889 Y75.750 Z-18.000 F60.000 
G1 X-89.889 Y73.750 Z-18.000 F60.000 
G1 X-85.929 Y73.750 Z-18.000 F60.000 
G1 X-83.929 Y75.750 Z-18.000 F60.000 
G1 X-79.969 Y75.750 Z-18.000 F60.000 
G1 X-81.969 Y73.750 Z-18.000 F60.000 
G1 X-78.009 Y73.750 Z-18.000 F60.000 
G1 X-76.009 Y75.750 Z-18.000 F60.000 
G1 X-72.050 Y75.750 Z-18.000 F60.000 
G1 X-74.050 Y73.750 Z-18.000 F60.000 
G1 X-70.090 Y73.750 Z-18.000 F60.000 
G1 X-68.090 Y75.750 Z-18.000 F60.000 
G1 X-66.130 Y75.750 Z-18.000 F60.000 
G1 X-66.130 Y73.750 Z-18.000 F60.000 
G1 X-66.130 Y73.750 Z-19.000 F30.000 
G1 X-66.130 Y75.750 Z-19.000 F60.000 
G1 X-68.090 Y75.750 Z-19.000 F60.000 
G1 X-70.090 Y73.750 Z-19.000 F60.000 
G1 X-74.050 Y73.750 Z-19.000 F60.000 
G1 X-72.050 Y75.750 Z-19.000 F60.000 
G1 X-76.009 Y75.750 Z-19.000 F60.000 
G1 X-78.009 Y73.750 Z-19.000 F60.000 
G1 X-81.969 Y73.750 Z-19.000 F60.000 
G1 X-79.969 Y75.750 Z-19.000 F60.000 
G1 X-83.929 Y75.750 Z-19.000 F60.000 
G1 X-85.929 Y73.750 Z-19.000 F60.000 
G1 X-89.889 Y73.750 Z-19.000 F60.000 
G1 X-87.889 Y75.750 Z-19.000 F60.000 
G1 X-91.849 Y75.750 Z-19.000 F60.000 
G1 X-93.849 Y73.750 Z-19.000 F60.000 
G1 X-96.630 Y73.750 Z-19.000 F60.000 
G1 X-96.630 Y74.928 Z-19.000 F60.000 
G1 X-95.808 Y75.750 Z-19.000 F60.000 
G1 X-96.630 Y75.750 Z-19.000 F60.000 
G1 X-96.630 Y74.928 Z-19.000 F60.000 
G0 Z5.000 
G0 Z5.000 
(finish operation: pocket-liitin-4mm)
(begin postamble)
M05
G17 G54 G90 G80 G40
M2
